;FLAVOR:Marlin
;TIME:2990
;Filament used: 1.13057m
;Layer height: 0.15
;Generated with Cura_SteamEngine 3.3.1
M82 ;absolute extrusion mode
 ;Basic settings: Layer height: 0.15 Walls: 1.6 Fill: 25
 ;metric values
 M107
 G28
 G29
 G90        ;absolute positioning
 G92 E0; reset extruder distance
 G1 Z5 F300 ;move nozzle up 5mm for safe homing
 G1 X0 Y0 Z0 F5000; move nozzle to home
 M300 S600P200
 M300 S800 P200
 M190 S70 ;Uncomment to add your own bed temperature line
 M109 S220 ;Uncomment to add your own temperature line
 M82        ;set extruder to absolute mode
 M107       ;start with the fan off
 G1 Z15.0 F120 ;move the platform down 15mm
 G92 E0                  ;zero the extruded length
 G1 F200 E3              ;extrude 3mm of feed stock
 G92 E0                  ;zero the extruded length again
 G1 F120
 ;Put printing message on LCD screen
 M117 Printing...

G92 E0
G1 F1500 E-3
;LAYER_COUNT:74
;LAYER:0
M107
G0 F3600 X90.23 Y93.65 Z0.12
;TYPE:SKIRT
G1 F1500 E0
G1 F900 X91.014 Y92.998 E0.02035
G1 X92.199 Y92.137 E0.04958
G1 X92.861 Y91.706 E0.06534
G1 X93.562 Y91.343 E0.0811
G1 X94.297 Y91.054 E0.09686
G1 X95.057 Y90.84 E0.11261
G1 X95.835 Y90.705 E0.12837
G1 X96.623 Y90.649 E0.14414
G1 X97.412 Y90.672 E0.15989
G1 X98.195 Y90.776 E0.17565
G1 X98.447 Y90.836 E0.18082
G1 X98.689 Y90.562 E0.18812
G1 X99.269 Y90.026 E0.20388
G1 X99.9 Y89.551 E0.21964
G1 X100.576 Y89.143 E0.2354
G1 X101.29 Y88.805 E0.25116
G1 X102.034 Y88.541 E0.26691
G1 X102.801 Y88.354 E0.28267
G1 X103.583 Y88.245 E0.29843
G1 X104.266 Y88.215 E0.31207
G1 X105.733 Y88.215 E0.34134
G1 X106.522 Y88.255 E0.35711
G1 X107.302 Y88.374 E0.37286
G1 X108.067 Y88.572 E0.38863
G1 X108.807 Y88.846 E0.40437
G1 X109.516 Y89.194 E0.42013
G1 X110.187 Y89.612 E0.43591
G1 X110.811 Y90.095 E0.45166
G1 X111.384 Y90.638 E0.46741
G1 X111.551 Y90.833 E0.47253
G1 X112.197 Y90.714 E0.48564
G1 X112.984 Y90.65 E0.5014
G1 X113.773 Y90.667 E0.51715
G1 X114.557 Y90.763 E0.53291
G1 X115.327 Y90.938 E0.54867
G1 X116.076 Y91.19 E0.56444
G1 X116.795 Y91.516 E0.58019
G1 X117.801 Y92.137 E0.60379
G1 X118.986 Y92.998 E0.63302
G1 X119.6 Y93.494 E0.64877
G1 X120.162 Y94.049 E0.66453
G1 X120.664 Y94.659 E0.6803
G1 X121.102 Y95.316 E0.69606
G1 X121.471 Y96.014 E0.71181
G1 X121.768 Y96.745 E0.72756
G1 X121.989 Y97.504 E0.74333
G1 X122.133 Y98.28 E0.75908
G1 X122.154 Y98.535 E0.76419
G1 X122.333 Y98.608 E0.76805
G1 X123.031 Y98.979 E0.78382
G1 X123.687 Y99.418 E0.79957
G1 X124.295 Y99.922 E0.81533
G1 X124.85 Y100.484 E0.8311
G1 X125.344 Y101.1 E0.84685
G1 X125.774 Y101.762 E0.86261
G1 X126.135 Y102.465 E0.87838
G1 X126.442 Y103.258 E0.89535
G1 X126.896 Y104.653 E0.92462
G1 X127.102 Y105.415 E0.94038
G1 X127.23 Y106.195 E0.95615
G1 X127.279 Y106.983 E0.97191
G1 X127.247 Y107.772 E0.98766
G1 X127.136 Y108.554 E1.00343
G1 X126.946 Y109.32 E1.01918
G1 X126.68 Y110.064 E1.03494
G1 X126.34 Y110.777 E1.05071
G1 X126.203 Y111.002 E1.05596
G1 X126.396 Y111.33 E1.06356
G1 X126.725 Y112.048 E1.07932
G1 X126.98 Y112.795 E1.09507
G1 X127.158 Y113.565 E1.11084
G1 X127.257 Y114.348 E1.12659
G1 X127.276 Y115.137 E1.14234
G1 X127.216 Y115.925 E1.15811
G1 X127.076 Y116.702 E1.17387
G1 X126.896 Y117.35 E1.18729
G1 X126.442 Y118.744 E1.21655
G1 X126.159 Y119.482 E1.23232
G1 X125.804 Y120.187 E1.24807
G1 X125.379 Y120.853 E1.26384
G1 X124.889 Y121.472 E1.27959
G1 X124.339 Y122.039 E1.29536
G1 X123.735 Y122.547 E1.31111
G1 X123.082 Y122.991 E1.32687
G1 X122.387 Y123.367 E1.34264
G1 X122.153 Y123.465 E1.3477
G1 X122.117 Y123.837 E1.35516
G1 X121.962 Y124.611 E1.37091
G1 X121.729 Y125.365 E1.38666
G1 X121.422 Y126.093 E1.40242
G1 X121.042 Y126.785 E1.41818
G1 X120.594 Y127.436 E1.43395
G1 X120.083 Y128.038 E1.44971
G1 X119.514 Y128.585 E1.46546
G1 X118.982 Y129.007 E1.47901
G1 X118.816 Y129.128 E1.48311
G1 X118.8 Y149.007 E1.87982
G1 X118.743 Y149.945 E1.89857
G1 X118.597 Y151.142 E1.92263
G1 X118.461 Y151.92 E1.9384
G1 X118.149 Y152.958 E1.96003
G1 X117.723 Y154.084 E1.98405
G1 X117.407 Y154.808 E1.99982
G1 X116.849 Y155.752 E2.0217
G1 X116.165 Y156.744 E2.04574
G1 X115.685 Y157.37 E2.06149
G1 X114.91 Y158.16 E2.08357
G1 X114.005 Y158.96 E2.10768
G1 X113.388 Y159.452 E2.12343
G1 X112.469 Y160.02 E2.14499
G1 X111.404 Y160.58 E2.169
G1 X110.687 Y160.911 E2.18476
G1 X109.634 Y161.251 E2.20684
G1 X108.461 Y161.539 E2.23094
G1 X107.685 Y161.688 E2.24671
G1 X106.624 Y161.764 E2.26794
G1 X94.023 Y161.801 E2.51941
G1 X93.234 Y161.763 E2.53517
G1 X92.453 Y161.646 E2.55093
G1 X91.688 Y161.451 E2.56668
G1 X90.947 Y161.179 E2.58244
G1 X90.237 Y160.833 E2.5982
G1 X89.565 Y160.418 E2.61396
G1 X88.939 Y159.936 E2.62973
G1 X88.365 Y159.394 E2.64548
G1 X87.848 Y158.797 E2.66124
G1 X87.395 Y158.15 E2.677
G1 X87.009 Y157.461 E2.69276
G1 X86.695 Y156.736 E2.70853
G1 X86.456 Y155.984 E2.72428
G1 X86.294 Y155.211 E2.74004
G1 X86.212 Y154.426 E2.75579
G1 X86.2 Y154.001 E2.76427
G1 X86.2 Y146.001 E2.92392
G1 X86.24 Y145.212 E2.93969
G1 X86.359 Y144.432 E2.95543
G1 X86.557 Y143.667 E2.9712
G1 X86.831 Y142.927 E2.98695
G1 X87.179 Y142.218 E3.00271
G1 X87.597 Y141.547 E3.01849
G1 X88.08 Y140.923 E3.03424
G1 X88.623 Y140.35 E3.04999
G1 X89.222 Y139.835 E3.06575
G1 X89.87 Y139.384 E3.08151
G1 X90.561 Y139 E3.09728
G1 X91.286 Y138.688 E3.11304
G1 X92.039 Y138.451 E3.12879
G1 X92.813 Y138.292 E3.14456
G1 X93.2 Y138.252 E3.15232
G1 X93.2 Y130.466 E3.3077
G1 X92.765 Y130.233 E3.31755
G1 X92.231 Y129.881 E3.33031
G1 X91.04 Y129.023 E3.3596
G1 X90.423 Y128.529 E3.37538
G1 X89.86 Y127.976 E3.39113
G1 X89.355 Y127.369 E3.40688
G1 X88.914 Y126.713 E3.42266
G1 X88.542 Y126.017 E3.43841
G1 X88.242 Y125.286 E3.45418
G1 X88.018 Y124.529 E3.46993
G1 X87.871 Y123.753 E3.48569
G1 X87.846 Y123.464 E3.49148
G1 X87.507 Y123.317 E3.49885
G1 X86.818 Y122.93 E3.51462
G1 X86.172 Y122.476 E3.53038
G1 X85.575 Y121.959 E3.54614
G1 X85.034 Y121.384 E3.5619
G1 X84.553 Y120.757 E3.57767
G1 X84.139 Y120.085 E3.59342
G1 X83.794 Y119.375 E3.60917
G1 X83.558 Y118.744 E3.62261
G1 X83.104 Y117.349 E3.65189
G1 X82.898 Y116.587 E3.66764
G1 X82.77 Y115.807 E3.68342
G1 X82.721 Y115.019 E3.69917
G1 X82.753 Y114.23 E3.71493
G1 X82.864 Y113.448 E3.73069
G1 X83.054 Y112.682 E3.74644
G1 X83.32 Y111.938 E3.76221
G1 X83.66 Y111.225 E3.77797
G1 X83.797 Y111 E3.78323
G1 X83.604 Y110.671 E3.79084
G1 X83.275 Y109.953 E3.8066
G1 X83.02 Y109.206 E3.82236
G1 X82.842 Y108.436 E3.83813
G1 X82.743 Y107.653 E3.85388
G1 X82.724 Y106.863 E3.86965
G1 X82.784 Y106.076 E3.8854
G1 X82.924 Y105.299 E3.90115
G1 X83.104 Y104.652 E3.91456
G1 X83.558 Y103.258 E3.94381
G1 X83.841 Y102.52 E3.95959
G1 X84.196 Y101.815 E3.97534
G1 X84.621 Y101.149 E3.9911
G1 X85.111 Y100.53 E4.00686
G1 X85.661 Y99.963 E4.02262
G1 X86.265 Y99.455 E4.03837
G1 X86.918 Y99.011 E4.05413
G1 X87.613 Y98.635 E4.0699
G1 X87.838 Y98.541 E4.07477
G1 X87.84 Y98.509 E4.07541
G1 X87.961 Y97.728 E4.09118
G1 X88.16 Y96.964 E4.10693
G1 X88.435 Y96.224 E4.12269
G1 X88.783 Y95.515 E4.13845
G1 X89.202 Y94.846 E4.1542
G1 X89.686 Y94.222 E4.16996
G1 X90.23 Y93.65 E4.18571
G0 F3600 X90.638 Y93.818
G1 F900 X91.249 Y93.321 E4.20143
G1 X92.434 Y92.46 E4.23066
G1 X93.079 Y92.041 E4.24601
G1 X93.764 Y91.691 E4.26136
G1 X94.482 Y91.414 E4.27672
G1 X95.224 Y91.213 E4.29206
G1 X95.983 Y91.09 E4.30741
G1 X96.751 Y91.047 E4.32276
G1 X97.52 Y91.084 E4.33812
G1 X98.28 Y91.2 E4.35346
G1 X98.587 Y91.28 E4.35979
G1 X99.003 Y90.813 E4.37227
G1 X99.572 Y90.295 E4.38763
G1 X100.191 Y89.838 E4.40298
G1 X100.854 Y89.449 E4.41832
G1 X101.554 Y89.13 E4.43368
G1 X102.283 Y88.886 E4.44902
G1 X103.034 Y88.718 E4.46437
G1 X103.798 Y88.63 E4.47972
G1 X104.266 Y88.615 E4.48907
G1 X105.733 Y88.615 E4.51834
G1 X106.501 Y88.655 E4.53369
G1 X107.261 Y88.774 E4.54904
G1 X108.004 Y88.972 E4.56438
G1 X108.723 Y89.246 E4.57974
G1 X109.409 Y89.593 E4.59508
G1 X110.056 Y90.009 E4.61043
G1 X110.656 Y90.49 E4.62578
G1 X111.203 Y91.031 E4.64113
G1 X111.406 Y91.278 E4.64751
G1 X111.551 Y91.237 E4.65052
G1 X112.308 Y91.103 E4.66586
G1 X113.076 Y91.048 E4.68123
G1 X113.844 Y91.074 E4.69656
G1 X114.606 Y91.179 E4.71191
G1 X115.353 Y91.362 E4.72726
G1 X116.077 Y91.623 E4.74262
G1 X116.77 Y91.956 E4.75796
G1 X117.566 Y92.46 E4.77676
G1 X118.751 Y93.321 E4.80599
G1 X119.349 Y93.805 E4.82135
G1 X119.893 Y94.349 E4.8367
G1 X120.378 Y94.945 E4.85203
G1 X120.799 Y95.589 E4.86739
G1 X121.15 Y96.274 E4.88275
G1 X121.429 Y96.991 E4.8981
G1 X121.631 Y97.733 E4.91345
G1 X121.756 Y98.492 E4.9288
G1 X121.775 Y98.812 E4.93519
G1 X122.2 Y98.988 E4.94437
G1 X122.877 Y99.353 E4.95972
G1 X123.512 Y99.787 E4.97507
G1 X124.098 Y100.285 E4.99042
G1 X124.63 Y100.84 E5.00576
G1 X125.101 Y101.448 E5.02111
G1 X125.507 Y102.102 E5.03647
G1 X125.842 Y102.794 E5.05181
G1 X126.062 Y103.382 E5.06434
G1 X126.516 Y104.777 E5.09362
G1 X126.715 Y105.52 E5.10897
G1 X126.837 Y106.279 E5.12431
G1 X126.879 Y107.047 E5.13966
G1 X126.841 Y107.815 E5.155
G1 X126.724 Y108.576 E5.17037
G1 X126.528 Y109.319 E5.1857
G1 X126.256 Y110.039 E5.20106
G1 X125.911 Y110.726 E5.2164
G1 X125.738 Y110.996 E5.2228
G1 X126.06 Y111.55 E5.23559
G1 X126.375 Y112.252 E5.25095
G1 X126.617 Y112.982 E5.26629
G1 X126.781 Y113.733 E5.28163
G1 X126.866 Y114.498 E5.29699
G1 X126.872 Y115.267 E5.31234
G1 X126.797 Y116.032 E5.32768
G1 X126.644 Y116.786 E5.34303
G1 X126.515 Y117.227 E5.3522
G1 X126.061 Y118.621 E5.38146
G1 X125.785 Y119.339 E5.39681
G1 X125.436 Y120.024 E5.41215
G1 X125.018 Y120.67 E5.42751
G1 X124.535 Y121.268 E5.44285
G1 X123.993 Y121.814 E5.4582
G1 X123.397 Y122.3 E5.47355
G1 X122.753 Y122.721 E5.4889
G1 X122.07 Y123.074 E5.50424
G1 X121.778 Y123.187 E5.51049
G1 X121.715 Y123.817 E5.52313
G1 X121.559 Y124.571 E5.53849
G1 X121.326 Y125.303 E5.55382
G1 X121.017 Y126.008 E5.56918
G1 X120.638 Y126.677 E5.58453
G1 X120.19 Y127.303 E5.59989
G1 X119.681 Y127.879 E5.61523
G1 X119.114 Y128.399 E5.63058
G1 X118.747 Y128.683 E5.63984
G1 X118.416 Y128.923 E5.648
G1 X118.4 Y149.007 E6.0488
G1 X118.346 Y149.897 E6.06659
G1 X118.2 Y151.094 E6.09066
G1 X118.067 Y151.852 E6.10602
G1 X117.775 Y152.817 E6.12614
G1 X117.349 Y153.943 E6.15016
G1 X117.04 Y154.647 E6.1655
G1 X116.52 Y155.525 E6.18587
G1 X115.836 Y156.517 E6.20991
G1 X115.367 Y157.126 E6.22525
G1 X114.645 Y157.86 E6.2458
G1 X113.74 Y158.66 E6.26991
G1 X113.138 Y159.139 E6.28526
G1 X112.283 Y159.666 E6.3053
G1 X111.218 Y160.226 E6.32931
G1 X110.52 Y160.548 E6.34465
G1 X109.538 Y160.863 E6.36523
G1 X108.365 Y161.151 E6.38934
G1 X107.61 Y161.295 E6.40468
G1 X106.623 Y161.364 E6.42442
G1 X94.022 Y161.401 E6.67589
G1 X93.253 Y161.363 E6.69125
G1 X92.493 Y161.246 E6.7066
G1 X91.749 Y161.05 E6.72195
G1 X91.03 Y160.779 E6.73729
G1 X90.342 Y160.434 E6.75265
G1 X89.694 Y160.019 E6.768
G1 X89.093 Y159.54 E6.78334
G1 X88.545 Y159.001 E6.79868
G1 X88.055 Y158.407 E6.81405
G1 X87.63 Y157.767 E6.82938
G1 X87.273 Y157.085 E6.84474
G1 X86.989 Y156.37 E6.86009
G1 X86.781 Y155.63 E6.87543
G1 X86.651 Y154.872 E6.89078
G1 X86.6 Y154.001 E6.90819
G1 X86.6 Y146.001 E7.06784
G1 X86.64 Y145.233 E7.08319
G1 X86.759 Y144.473 E7.09854
G1 X86.957 Y143.73 E7.11388
G1 X87.231 Y143.011 E7.12924
G1 X87.578 Y142.325 E7.14458
G1 X87.994 Y141.678 E7.15993
G1 X88.475 Y141.078 E7.17528
G1 X89.016 Y140.531 E7.19063
G1 X89.611 Y140.043 E7.20599
G1 X90.253 Y139.62 E7.22133
G1 X90.936 Y139.265 E7.23669
G1 X91.651 Y138.984 E7.25202
G1 X92.393 Y138.778 E7.26739
G1 X93.151 Y138.65 E7.28273
G1 X93.6 Y138.624 E7.2917
G1 X93.6 Y130.223 E7.45935
G1 X93.488 Y130.174 E7.46179
G1 X92.818 Y129.796 E7.47715
G1 X92.465 Y129.556 E7.48566
G1 X91.274 Y128.698 E7.51496
G1 X90.674 Y128.217 E7.5303
G1 X90.127 Y127.676 E7.54566
G1 X89.639 Y127.081 E7.56101
G1 X89.216 Y126.439 E7.57636
G1 X88.862 Y125.756 E7.59171
G1 X88.581 Y125.04 E7.60706
G1 X88.375 Y124.299 E7.62241
G1 X88.248 Y123.54 E7.63776
G1 X88.226 Y123.194 E7.64468
G1 X87.649 Y122.94 E7.65726
G1 X86.981 Y122.559 E7.67261
G1 X86.356 Y122.111 E7.68796
G1 X85.781 Y121.6 E7.70331
G1 X85.262 Y121.033 E7.71865
G1 X84.804 Y120.414 E7.73401
G1 X84.414 Y119.752 E7.74935
G1 X84.094 Y119.052 E7.76471
G1 X83.938 Y118.62 E7.77387
G1 X83.484 Y117.225 E7.80315
G1 X83.285 Y116.482 E7.8185
G1 X83.163 Y115.723 E7.83384
G1 X83.121 Y114.955 E7.84919
G1 X83.159 Y114.187 E7.86453
G1 X83.276 Y113.426 E7.8799
G1 X83.472 Y112.683 E7.89523
G1 X83.744 Y111.963 E7.91059
G1 X84.089 Y111.276 E7.92593
G1 X84.262 Y111.005 E7.93235
G1 X83.94 Y110.451 E7.94514
G1 X83.624 Y109.749 E7.9605
G1 X83.383 Y109.019 E7.97584
G1 X83.219 Y108.267 E7.9912
G1 X83.134 Y107.503 E8.00654
G1 X83.129 Y106.734 E8.02189
G1 X83.203 Y105.968 E8.03725
G1 X83.357 Y105.215 E8.05258
G1 X83.485 Y104.775 E8.06173
G1 X83.939 Y103.381 E8.09098
G1 X84.215 Y102.663 E8.10634
G1 X84.564 Y101.978 E8.12168
G1 X84.982 Y101.332 E8.13703
G1 X85.465 Y100.734 E8.15237
G1 X86.007 Y100.188 E8.16773
G1 X86.603 Y99.702 E8.18307
G1 X87.247 Y99.281 E8.19843
G1 X87.93 Y98.928 E8.21377
G1 X88.225 Y98.813 E8.22009
G1 X88.242 Y98.51 E8.22614
G1 X88.365 Y97.751 E8.24149
G1 X88.565 Y97.008 E8.25684
G1 X88.842 Y96.29 E8.2722
G1 X89.192 Y95.605 E8.28755
G1 X89.611 Y94.96 E8.3029
G1 X90.094 Y94.362 E8.31824
G1 X90.638 Y93.818 E8.33359
G0 F3600 X91.044 Y93.992
G1 F900 X91.484 Y93.645 E8.34478
G1 X92.669 Y92.784 E8.37401
G1 X93.297 Y92.377 E8.38894
G1 X93.965 Y92.04 E8.40387
G1 X94.665 Y91.776 E8.4188
G1 X95.389 Y91.587 E8.43374
G1 X96.129 Y91.478 E8.44866
G1 X96.876 Y91.448 E8.46358
G1 X97.623 Y91.497 E8.47852
G1 X98.359 Y91.627 E8.49344
G1 X98.735 Y91.735 E8.50124
G1 X98.817 Y91.621 E8.50405
G1 X99.317 Y91.065 E8.51897
G1 X99.873 Y90.565 E8.53389
G1 X100.48 Y90.127 E8.54883
G1 X101.13 Y89.757 E8.56375
G1 X101.815 Y89.458 E8.57867
G1 X102.529 Y89.234 E8.5936
G1 X103.263 Y89.087 E8.60854
G1 X104.266 Y89.015 E8.62861
G1 X105.733 Y89.015 E8.65788
G1 X106.48 Y89.055 E8.67281
G1 X107.218 Y89.174 E8.68773
G1 X107.94 Y89.372 E8.70267
G1 X108.636 Y89.645 E8.71759
G1 X109.299 Y89.992 E8.73252
G1 X109.922 Y90.407 E8.74746
G1 X110.496 Y90.886 E8.76238
G1 X111.017 Y91.423 E8.77731
G1 X111.26 Y91.736 E8.78522
G1 X111.681 Y91.617 E8.79395
G1 X112.419 Y91.493 E8.80888
G1 X113.165 Y91.447 E8.8238
G1 X113.913 Y91.482 E8.83874
G1 X114.652 Y91.596 E8.85367
G1 X115.375 Y91.788 E8.86859
G1 X116.073 Y92.057 E8.88352
G1 X116.739 Y92.398 E8.89845
G1 X117.331 Y92.784 E8.91256
G1 X118.516 Y93.645 E8.94179
G1 X119.096 Y94.116 E8.9567
G1 X119.624 Y94.647 E8.97164
G1 X120.091 Y95.231 E8.98656
G1 X120.494 Y95.862 E9.00151
G1 X120.827 Y96.531 E9.01642
G1 X121.086 Y97.233 E9.03135
G1 X121.27 Y97.958 E9.04628
G1 X121.374 Y98.699 E9.06121
G1 X121.387 Y99.083 E9.06888
G1 X122.065 Y99.367 E9.08355
G1 X122.721 Y99.727 E9.09848
G1 X123.334 Y100.155 E9.1134
G1 X123.898 Y100.647 E9.12834
G1 X124.407 Y101.196 E9.14328
G1 X124.854 Y101.795 E9.15819
G1 X125.234 Y102.44 E9.17313
G1 X125.543 Y103.121 E9.18805
G1 X125.681 Y103.506 E9.19622
G1 X126.135 Y104.901 E9.22549
G1 X126.329 Y105.623 E9.24041
G1 X126.443 Y106.363 E9.25535
G1 X126.479 Y107.11 E9.27028
G1 X126.434 Y107.857 E9.28521
G1 X126.31 Y108.594 E9.30013
G1 X126.108 Y109.315 E9.31507
G1 X125.831 Y110.009 E9.32998
G1 X125.48 Y110.67 E9.34492
G1 X125.259 Y110.998 E9.35281
G1 X125.349 Y111.122 E9.35587
G1 X125.722 Y111.77 E9.37079
G1 X126.025 Y112.454 E9.38572
G1 X126.252 Y113.167 E9.40065
G1 X126.402 Y113.9 E9.41558
G1 X126.473 Y114.644 E9.43049
G1 X126.464 Y115.392 E9.44542
G1 X126.375 Y116.135 E9.46036
G1 X126.135 Y117.103 E9.48026
G1 X125.681 Y118.497 E9.50952
G1 X125.412 Y119.195 E9.52444
G1 X125.069 Y119.86 E9.53938
G1 X124.658 Y120.485 E9.5543
G1 X124.182 Y121.062 E9.56923
G1 X123.648 Y121.585 E9.58415
G1 X123.061 Y122.049 E9.59908
G1 X122.427 Y122.447 E9.61402
G1 X121.755 Y122.775 E9.62894
G1 X121.392 Y122.906 E9.63664
G1 X121.392 Y123.053 E9.63957
G1 X121.314 Y123.797 E9.6545
G1 X121.156 Y124.529 E9.66945
G1 X120.922 Y125.239 E9.68437
G1 X120.613 Y125.92 E9.69929
G1 X120.233 Y126.565 E9.71423
G1 X119.787 Y127.165 E9.72915
G1 X119.279 Y127.714 E9.74407
G1 X118.513 Y128.359 E9.76406
G1 X118.016 Y128.72 E9.77632
G1 X118 Y149.007 E10.18117
G1 X117.949 Y149.849 E10.198
G1 X117.803 Y151.046 E10.22206
G1 X117.672 Y151.782 E10.23698
