;FLAVOR:Marlin
;TIME:2986
;Filament used: 1.11888m
;Layer height: 0.15
;Generated with Cura_SteamEngine 3.3.1
M82 ;absolute extrusion mode
 ;Basic settings: Layer height: 0.15 Walls: 1.6 Fill: 25
 ;metric values
 M107
 G28
 G29
 G90        ;absolute positioning
 G92 E0; reset extruder distance
 G1 Z5 F300 ;move nozzle up 5mm for safe homing
 G1 X0 Y0 Z0 F5000; move nozzle to home
 M300 S600P200
 M300 S800 P200
 M190 S70 ;Uncomment to add your own bed temperature line
 M109 S220 ;Uncomment to add your own temperature line
 M82        ;set extruder to absolute mode
 M107       ;start with the fan off
 G1 Z15.0 F120 ;move the platform down 15mm
 G92 E0                  ;zero the extruded length
 G1 F200 E3              ;extrude 3mm of feed stock
 G92 E0                  ;zero the extruded length again
 G1 F120
 ;Put printing message on LCD screen
 M117 Printing...

G92 E0
G1 F1500 E-3
;LAYER_COUNT:74
;LAYER:0
M107
G0 F3600 X87.914 Y95.824 Z0.12
;TYPE:SKIRT
G1 F1500 E0
G1 F900 X88.519 Y95.316 E0.01577
G1 X89.172 Y94.872 E0.03152
G1 X89.866 Y94.496 E0.04728
G1 X90.595 Y94.193 E0.06303
G1 X91.351 Y93.964 E0.07879
G1 X92.127 Y93.814 E0.09457
G1 X92.385 Y93.79 E0.09974
G1 X92.457 Y93.609 E0.10362
G1 X92.822 Y92.909 E0.11938
G1 X93.256 Y92.249 E0.13514
G1 X93.754 Y91.636 E0.1509
G1 X94.312 Y91.077 E0.16667
G1 X94.923 Y90.577 E0.18242
G1 X95.582 Y90.141 E0.19819
G1 X96.281 Y89.775 E0.21394
G1 X97.071 Y89.461 E0.2309
G1 X98.462 Y88.995 E0.26018
G1 X99.223 Y88.782 E0.27595
G1 X100.001 Y88.648 E0.2917
G1 X100.789 Y88.592 E0.30747
G1 X101.578 Y88.617 E0.32322
G1 X102.361 Y88.721 E0.33898
G1 X103.129 Y88.904 E0.35474
G1 X103.875 Y89.164 E0.3705
G1 X104.59 Y89.498 E0.38625
G1 X104.817 Y89.633 E0.39152
G1 X105.142 Y89.438 E0.39908
G1 X105.856 Y89.102 E0.41483
G1 X106.601 Y88.841 E0.43059
G1 X107.369 Y88.656 E0.44635
G1 X108.152 Y88.55 E0.46212
G1 X108.941 Y88.523 E0.47787
G1 X109.729 Y88.576 E0.49363
G1 X110.507 Y88.709 E0.50939
G1 X111.163 Y88.886 E0.52294
G1 X112.559 Y89.328 E0.55217
G1 X113.299 Y89.604 E0.56793
G1 X114.007 Y89.954 E0.58369
G1 X114.676 Y90.373 E0.59944
G1 X115.3 Y90.858 E0.61521
G1 X115.871 Y91.403 E0.63097
G1 X116.384 Y92.004 E0.64673
G1 X116.834 Y92.653 E0.66249
G1 X117.215 Y93.344 E0.67824
G1 X117.313 Y93.574 E0.68323
G1 X117.691 Y93.607 E0.6908
G1 X118.467 Y93.756 E0.70657
G1 X119.223 Y93.982 E0.72232
G1 X119.953 Y94.284 E0.73808
G1 X120.648 Y94.658 E0.75383
G1 X121.303 Y95.101 E0.76961
G1 X121.909 Y95.607 E0.78537
G1 X122.46 Y96.172 E0.80112
G1 X122.881 Y96.692 E0.81447
G1 X123.752 Y97.869 E0.84369
G1 X124.189 Y98.527 E0.85945
G1 X124.557 Y99.225 E0.8752
G1 X124.853 Y99.958 E0.89097
G1 X125.073 Y100.716 E0.90673
G1 X125.216 Y101.493 E0.92249
G1 X125.279 Y102.28 E0.93825
G1 X125.262 Y103.069 E0.954
G1 X125.165 Y103.853 E0.96976
G1 X125.108 Y104.104 E0.9749
G1 X125.264 Y104.234 E0.97895
G1 X125.817 Y104.798 E0.99471
G1 X126.31 Y105.414 E1.01046
G1 X126.738 Y106.078 E1.02622
G1 X127.097 Y106.781 E1.04198
G1 X127.383 Y107.517 E1.05773
G1 X127.593 Y108.279 E1.07351
G1 X127.725 Y109.057 E1.08925
G1 X127.779 Y109.902 E1.10615
G1 X127.792 Y111.369 E1.13543
G1 X127.759 Y112.158 E1.15119
G1 X127.646 Y112.939 E1.16694
G1 X127.455 Y113.706 E1.18271
G1 X127.188 Y114.449 E1.19847
G1 X126.846 Y115.161 E1.21423
G1 X126.435 Y115.835 E1.22998
G1 X125.957 Y116.464 E1.24575
G1 X125.418 Y117.041 E1.2615
G1 X125.224 Y117.211 E1.26665
G1 X125.273 Y117.402 E1.27059
G1 X125.389 Y118.183 E1.28634
G1 X125.426 Y118.972 E1.30211
G1 X125.383 Y119.761 E1.31788
G1 X125.26 Y120.541 E1.33363
G1 X125.059 Y121.305 E1.3494
G1 X124.782 Y122.044 E1.36515
G1 X124.431 Y122.752 E1.38092
G1 X123.978 Y123.467 E1.39781
G1 X123.127 Y124.661 E1.42707
G1 X122.636 Y125.28 E1.44284
G1 X122.086 Y125.846 E1.45859
G1 X121.481 Y126.354 E1.47435
G1 X120.828 Y126.798 E1.49011
G1 X120.134 Y127.174 E1.50586
G1 X119.405 Y127.477 E1.52162
G1 X118.649 Y127.706 E1.53738
G1 X117.873 Y127.856 E1.55315
G1 X117.611 Y127.88 E1.5584
G1 X117.464 Y128.226 E1.5659
G1 X117.293 Y128.537 E1.57299
G1 X117.293 Y137.893 E1.7597
G1 X117.782 Y137.918 E1.76947
G1 X118.562 Y138.037 E1.78521
G1 X119.327 Y138.235 E1.80098
G1 X120.067 Y138.509 E1.81673
G1 X120.776 Y138.857 E1.83249
G1 X121.447 Y139.275 E1.84827
G1 X122.071 Y139.758 E1.86402
G1 X122.644 Y140.301 E1.87977
G1 X123.159 Y140.9 E1.89553
G1 X123.61 Y141.548 E1.91129
G1 X123.994 Y142.239 E1.92706
G1 X124.306 Y142.964 E1.94282
G1 X124.543 Y143.717 E1.95857
G1 X124.702 Y144.491 E1.97434
G1 X124.783 Y145.276 E1.99009
G1 X124.793 Y145.678 E1.99811
G1 X124.793 Y153.678 E2.15776
G1 X124.753 Y154.467 E2.17353
G1 X124.634 Y155.247 E2.18927
G1 X124.436 Y156.012 E2.20504
G1 X124.162 Y156.752 E2.22079
G1 X123.814 Y157.461 E2.23655
G1 X123.396 Y158.132 E2.25233
G1 X122.913 Y158.756 E2.26807
G1 X122.37 Y159.329 E2.28383
G1 X121.771 Y159.844 E2.29959
G1 X121.123 Y160.295 E2.31535
G1 X120.432 Y160.679 E2.33112
G1 X119.707 Y160.991 E2.34687
G1 X118.954 Y161.228 E2.36263
G1 X118.18 Y161.387 E2.3784
G1 X117.395 Y161.468 E2.39414
G1 X116.969 Y161.478 E2.40265
G1 X105.068 Y161.441 E2.64015
G1 X104.279 Y161.399 E2.65591
G1 X103.232 Y161.216 E2.67712
G1 X102.059 Y160.928 E2.70123
G1 X101.303 Y160.701 E2.71698
G1 X100.289 Y160.257 E2.73907
G1 X99.224 Y159.697 E2.76308
G1 X98.544 Y159.294 E2.77886
G1 X97.684 Y158.634 E2.80049
G1 X96.779 Y157.833 E2.82461
G1 X96.215 Y157.28 E2.84037
G1 X95.528 Y156.42 E2.86234
G1 X94.844 Y155.428 E2.88638
G1 X94.429 Y154.756 E2.90215
G1 X93.97 Y153.762 E2.92399
G1 X93.544 Y152.637 E2.948
G1 X93.303 Y151.885 E2.96376
G1 X93.096 Y150.82 E2.98541
G1 X92.95 Y149.624 E3.00946
G1 X92.893 Y148.679 E3.02835
G1 X92.893 Y128.521 E3.43062
G1 X92.738 Y128.231 E3.43718
G1 X92.686 Y128.105 E3.43991
G1 X92.657 Y128.104 E3.44048
G1 X91.876 Y127.99 E3.45624
G1 X91.11 Y127.798 E3.47199
G1 X90.367 Y127.529 E3.48776
G1 X89.656 Y127.186 E3.50352
G1 X88.982 Y126.774 E3.51928
G1 X88.354 Y126.295 E3.53504
G1 X87.778 Y125.756 E3.55079
G1 X87.119 Y124.978 E3.57113
G1 X86.248 Y123.801 E3.60035
G1 X85.811 Y123.143 E3.61612
G1 X85.443 Y122.445 E3.63186
G1 X85.147 Y121.712 E3.64764
G1 X84.927 Y120.954 E3.66339
G1 X84.784 Y120.177 E3.67916
G1 X84.721 Y119.39 E3.69491
G1 X84.738 Y118.601 E3.71066
G1 X84.835 Y117.817 E3.72643
G1 X84.892 Y117.565 E3.73158
G1 X84.736 Y117.435 E3.73563
G1 X84.183 Y116.871 E3.7514
G1 X83.69 Y116.255 E3.76714
G1 X83.262 Y115.591 E3.78291
G1 X82.903 Y114.888 E3.79866
G1 X82.617 Y114.152 E3.81442
G1 X82.407 Y113.39 E3.83019
G1 X82.275 Y112.612 E3.84594
G1 X82.221 Y111.767 E3.86284
G1 X82.208 Y110.301 E3.89209
G1 X82.241 Y109.512 E3.90785
G1 X82.354 Y108.731 E3.9236
G1 X82.545 Y107.964 E3.93937
G1 X82.812 Y107.221 E3.95513
G1 X83.154 Y106.509 E3.97089
G1 X83.565 Y105.835 E3.98665
G1 X84.043 Y105.206 E4.00241
G1 X84.582 Y104.629 E4.01817
G1 X84.778 Y104.458 E4.02336
G1 X84.696 Y104.104 E4.03061
G1 X84.596 Y103.321 E4.04636
G1 X84.577 Y102.531 E4.06213
G1 X84.637 Y101.744 E4.07788
G1 X84.776 Y100.966 E4.09366
G1 X84.993 Y100.207 E4.10941
G1 X85.286 Y99.474 E4.12516
G1 X85.652 Y98.774 E4.14093
G1 X86.022 Y98.203 E4.1545
G1 X86.873 Y97.009 E4.18376
G1 X87.364 Y96.39 E4.19953
G1 X87.914 Y95.824 E4.21528
G0 F3600 X88.216 Y96.089
G1 F900 X88.808 Y95.599 E4.23062
G1 X89.448 Y95.172 E4.24597
G1 X90.129 Y94.815 E4.26131
G1 X90.843 Y94.53 E4.27666
G1 X91.584 Y94.32 E4.29203
G1 X92.341 Y94.189 E4.30736
G1 X92.665 Y94.167 E4.31384
G1 X92.838 Y93.739 E4.32305
G1 X93.198 Y93.06 E4.33839
G1 X93.626 Y92.421 E4.35374
G1 X94.119 Y91.83 E4.36909
G1 X94.67 Y91.293 E4.38445
G1 X95.274 Y90.817 E4.39979
G1 X95.924 Y90.406 E4.41514
G1 X96.613 Y90.064 E4.43049
G1 X97.198 Y89.84 E4.44299
G1 X98.589 Y89.374 E4.47227
G1 X99.33 Y89.168 E4.48762
G1 X100.089 Y89.04 E4.50298
G1 X100.856 Y88.991 E4.51831
G1 X101.625 Y89.023 E4.53367
G1 X102.386 Y89.134 E4.54902
G1 X103.132 Y89.323 E4.56438
G1 X103.853 Y89.589 E4.57972
G1 X104.544 Y89.928 E4.59508
G1 X104.816 Y90.099 E4.60149
G1 X105.365 Y89.772 E4.61424
G1 X106.063 Y89.45 E4.62958
G1 X106.792 Y89.202 E4.64495
G1 X107.541 Y89.031 E4.66028
G1 X108.305 Y88.939 E4.67563
G1 X109.074 Y88.927 E4.69098
G1 X109.84 Y88.994 E4.70633
G1 X110.595 Y89.141 E4.72168
G1 X111.043 Y89.267 E4.73096
G1 X112.439 Y89.709 E4.76019
G1 X113.159 Y89.979 E4.77553
G1 X113.847 Y90.322 E4.79087
G1 X114.496 Y90.735 E4.80622
G1 X115.099 Y91.213 E4.82158
G1 X115.649 Y91.751 E4.83693
G1 X116.139 Y92.343 E4.85227
G1 X116.566 Y92.983 E4.86762
G1 X116.924 Y93.664 E4.88298
G1 X117.039 Y93.95 E4.88913
G1 X117.675 Y94.009 E4.90187
G1 X118.43 Y94.159 E4.91724
G1 X119.164 Y94.387 E4.93257
G1 X119.872 Y94.689 E4.94793
G1 X120.544 Y95.063 E4.96328
G1 X121.173 Y95.505 E4.97862
G1 X121.753 Y96.01 E4.99397
G1 X122.278 Y96.573 E5.00933
G1 X122.559 Y96.93 E5.0184
G1 X123.43 Y98.107 E5.04762
G1 X123.855 Y98.748 E5.06297
G1 X124.211 Y99.43 E5.07832
G1 X124.494 Y100.145 E5.09367
G1 X124.702 Y100.886 E5.10903
G1 X124.831 Y101.644 E5.12437
G1 X124.881 Y102.412 E5.13973
G1 X124.851 Y103.18 E5.15507
G1 X124.742 Y103.942 E5.17043
G1 X124.663 Y104.255 E5.17687
G1 X125.022 Y104.555 E5.18621
G1 X125.557 Y105.108 E5.20156
G1 X126.031 Y105.713 E5.2169
G1 X126.441 Y106.364 E5.23225
G1 X126.78 Y107.055 E5.24761
G1 X127.046 Y107.776 E5.26295
G1 X127.236 Y108.522 E5.27831
G1 X127.347 Y109.283 E5.29366
G1 X127.379 Y109.905 E5.30609
G1 X127.392 Y111.372 E5.33536
G1 X127.359 Y112.141 E5.35072
G1 X127.246 Y112.902 E5.36608
G1 X127.055 Y113.647 E5.38143
G1 X126.787 Y114.368 E5.39678
G1 X126.446 Y115.057 E5.41212
G1 X126.036 Y115.708 E5.42747
G1 X125.56 Y116.312 E5.44282
G1 X125.024 Y116.864 E5.45817
G1 X124.776 Y117.071 E5.46462
G1 X124.889 Y117.52 E5.47386
G1 X124.997 Y118.282 E5.48922
G1 X125.025 Y119.051 E5.50457
G1 X124.974 Y119.818 E5.51991
G1 X124.843 Y120.576 E5.53526
G1 X124.634 Y121.316 E5.55061
G1 X124.35 Y122.031 E5.56596
G1 X123.992 Y122.712 E5.58132
G1 X123.652 Y123.235 E5.59376
G1 X122.801 Y124.429 E5.62302
G1 X122.323 Y125.031 E5.63836
G1 X121.784 Y125.581 E5.65373
G1 X121.192 Y126.071 E5.66907
G1 X120.552 Y126.498 E5.68442
G1 X119.871 Y126.855 E5.69977
G1 X119.157 Y127.14 E5.71511
G1 X118.416 Y127.35 E5.73048
G1 X117.659 Y127.481 E5.74581
G1 X117.337 Y127.503 E5.75225
G1 X117.086 Y128.087 E5.76493
G1 X116.893 Y128.432 E5.77282
G1 X116.893 Y138.278 E5.96931
G1 X116.993 Y138.278 E5.97131
G1 X117.761 Y138.318 E5.98665
G1 X118.521 Y138.437 E6.00201
G1 X119.264 Y138.635 E6.01735
G1 X119.983 Y138.909 E6.0327
G1 X120.669 Y139.256 E6.04805
G1 X121.316 Y139.672 E6.0634
G1 X121.916 Y140.153 E6.07874
G1 X122.463 Y140.694 E6.0941
G1 X122.951 Y141.289 E6.10945
G1 X123.374 Y141.931 E6.1248
G1 X123.729 Y142.614 E6.14016
G1 X124.01 Y143.329 E6.15549
G1 X124.216 Y144.071 E6.17086
G1 X124.344 Y144.829 E6.1862
G1 X124.393 Y145.678 E6.20317
G1 X124.393 Y153.678 E6.36282
G1 X124.353 Y154.446 E6.37816
G1 X124.234 Y155.206 E6.39351
G1 X124.036 Y155.949 E6.40886
G1 X123.762 Y156.668 E6.42421
G1 X123.415 Y157.354 E6.43956
G1 X122.999 Y158.001 E6.45491
G1 X122.518 Y158.601 E6.47025
G1 X121.977 Y159.148 E6.4856
G1 X121.382 Y159.636 E6.50096
G1 X120.74 Y160.059 E6.5163
G1 X120.057 Y160.414 E6.53167
G1 X119.342 Y160.695 E6.547
G1 X118.6 Y160.901 E6.56236
G1 X117.842 Y161.029 E6.5777
G1 X116.97 Y161.078 E6.59513
G1 X105.069 Y161.041 E6.83263
G1 X104.301 Y160.999 E6.84798
G1 X103.328 Y160.828 E6.8677
G1 X102.155 Y160.54 E6.8918
G1 X101.418 Y160.318 E6.90716
G1 X100.475 Y159.903 E6.92772
G1 X99.41 Y159.343 E6.95173
G1 X98.749 Y158.95 E6.96708
G1 X97.95 Y158.334 E6.98721
G1 X97.045 Y157.533 E7.01133
G1 X96.496 Y156.994 E7.02668
G1 X95.857 Y156.193 E7.04713
G1 X95.173 Y155.201 E7.07118
G1 X94.77 Y154.546 E7.08653
G1 X94.345 Y153.621 E7.10684
G1 X93.919 Y152.496 E7.13085
G1 X93.684 Y151.763 E7.14621
G1 X93.494 Y150.772 E7.16634
G1 X93.348 Y149.576 E7.19039
G1 X93.293 Y148.679 E7.20832
G1 X93.293 Y128.426 E7.61249
G1 X93.034 Y127.915 E7.62393
G1 X92.957 Y127.716 E7.62819
G1 X92.655 Y127.701 E7.63422
G1 X91.894 Y127.586 E7.64958
G1 X91.15 Y127.391 E7.66493
G1 X90.43 Y127.121 E7.68027
G1 X89.742 Y126.777 E7.69562
G1 X89.093 Y126.364 E7.71097
G1 X88.491 Y125.885 E7.72633
G1 X87.942 Y125.347 E7.74167
G1 X87.441 Y124.74 E7.75737
G1 X86.57 Y123.563 E7.78659
G1 X86.145 Y122.922 E7.80194
G1 X85.789 Y122.24 E7.81729
G1 X85.506 Y121.525 E7.83264
G1 X85.298 Y120.784 E7.848
G1 X85.169 Y120.026 E7.86334
G1 X85.119 Y119.258 E7.8787
G1 X85.149 Y118.49 E7.89404
G1 X85.258 Y117.728 E7.9094
G1 X85.337 Y117.415 E7.91584
G1 X84.978 Y117.114 E7.92519
G1 X84.443 Y116.561 E7.94055
G1 X83.969 Y115.956 E7.95588
G1 X83.559 Y115.305 E7.97124
G1 X83.22 Y114.614 E7.9866
G1 X82.954 Y113.893 E8.00193
G1 X82.764 Y113.147 E8.0173
G1 X82.653 Y112.386 E8.03264
G1 X82.621 Y111.764 E8.04507
G1 X82.608 Y110.298 E8.07433
G1 X82.641 Y109.529 E8.08969
G1 X82.754 Y108.768 E8.10504
G1 X82.945 Y108.023 E8.12039
G1 X83.213 Y107.302 E8.13574
G1 X83.554 Y106.613 E8.15108
G1 X83.964 Y105.962 E8.16644
G1 X84.44 Y105.358 E8.18178
G1 X84.976 Y104.806 E8.19714
G1 X85.221 Y104.602 E8.2035
G1 X85.083 Y103.994 E8.21594
G1 X84.991 Y103.23 E8.2313
G1 X84.979 Y102.461 E8.24665
G1 X85.047 Y101.695 E8.26199
G1 X85.194 Y100.94 E8.27734
G1 X85.418 Y100.205 E8.29268
G1 X85.718 Y99.496 E8.30804
G1 X86.09 Y98.823 E8.32339
G1 X86.348 Y98.435 E8.33268
G1 X87.199 Y97.241 E8.36194
G1 X87.677 Y96.639 E8.37728
G1 X88.216 Y96.089 E8.39265
G0 F3600 X88.517 Y96.356
G1 F900 X89.096 Y95.883 E8.40757
G1 X89.723 Y95.475 E8.4225
G1 X90.39 Y95.136 E8.43743
G1 X91.089 Y94.87 E8.45236
G1 X91.813 Y94.68 E8.46729
G1 X92.552 Y94.568 E8.48221
G1 X92.94 Y94.551 E8.48996
G1 X93.218 Y93.871 E8.50462
G1 X93.573 Y93.212 E8.51956
G1 X93.996 Y92.595 E8.53449
G1 X94.482 Y92.027 E8.54941
G1 X95.027 Y91.514 E8.56434
G1 X95.623 Y91.062 E8.57927
G1 X96.264 Y90.676 E8.5942
G1 X96.942 Y90.361 E8.60912
G1 X97.325 Y90.22 E8.61726
G1 X98.716 Y89.754 E8.64654
G1 X99.437 Y89.554 E8.66147
G1 X100.176 Y89.433 E8.67642
G1 X100.922 Y89.391 E8.69133
G1 X101.67 Y89.429 E8.70627
G1 X102.408 Y89.547 E8.72119
G1 X103.13 Y89.742 E8.73611
G1 X103.827 Y90.014 E8.75104
G1 X104.491 Y90.359 E8.76598
G1 X104.821 Y90.577 E8.77387
G1 X104.943 Y90.487 E8.77689
G1 X105.587 Y90.107 E8.79182
G1 X106.269 Y89.799 E8.80675
G1 X106.98 Y89.565 E8.82169
G1 X107.711 Y89.409 E8.8366
G1 X108.455 Y89.331 E8.85153
G1 X109.203 Y89.333 E8.86646
G1 X109.947 Y89.415 E8.8814
G1 X110.922 Y89.649 E8.90141
G1 X112.318 Y90.091 E8.93063
G1 X113.018 Y90.354 E8.94555
G1 X113.686 Y90.691 E8.96048
G1 X114.314 Y91.097 E8.97541
G1 X114.895 Y91.568 E8.99033
G1 X115.423 Y92.098 E9.00526
G1 X115.891 Y92.682 E9.0202
G1 X116.294 Y93.312 E9.03512
G1 X116.628 Y93.981 E9.05004
G1 X116.761 Y94.34 E9.05768
G1 X116.914 Y94.339 E9.06074
G1 X117.658 Y94.411 E9.07565
G1 X118.391 Y94.562 E9.09059
G1 X119.103 Y94.791 E9.10551
G1 X119.787 Y95.094 E9.12044
G1 X120.435 Y95.469 E9.13538
G1 X121.038 Y95.91 E9.15029
G1 X121.592 Y96.414 E9.16524
G1 X122.238 Y97.168 E9.18505
G1 X123.109 Y98.345 E9.21427
G1 X123.521 Y98.969 E9.22919
G1 X123.864 Y99.634 E9.24413
G1 X124.135 Y100.331 E9.25905
G1 X124.329 Y101.054 E9.27399
G1 X124.445 Y101.793 E9.28892
G1 X124.482 Y102.54 E9.30384
G1 X124.439 Y103.287 E9.31877
G1 X124.316 Y104.025 E9.3337
G1 X124.212 Y104.397 E9.34141
G1 X124.779 Y104.876 E9.35622
G1 X125.296 Y105.417 E9.37116
G1 X125.751 Y106.011 E9.38609
G1 X126.141 Y106.649 E9.40101
G1 X126.46 Y107.326 E9.41595
G1 X126.705 Y108.033 E9.43088
G1 X126.874 Y108.761 E9.44579
G1 X126.963 Y109.504 E9.46073
G1 X126.979 Y109.909 E9.46882
G1 X126.992 Y111.376 E9.49809
G1 X126.958 Y112.123 E9.51302
G1 X126.845 Y112.863 E9.52795
G1 X126.654 Y113.586 E9.54288
G1 X126.387 Y114.285 E9.55781
G1 X126.047 Y114.951 E9.57273
G1 X125.637 Y115.577 E9.58767
G1 X125.163 Y116.156 E9.6026
G1 X124.63 Y116.681 E9.61753
G1 X124.327 Y116.921 E9.62524
G1 X124.504 Y117.637 E9.63996
G1 X124.603 Y118.379 E9.6549
G1 X124.624 Y119.127 E9.66983
G1 X124.564 Y119.872 E9.68475
G1 X124.425 Y120.607 E9.69968
G1 X124.208 Y121.323 E9.71461
G1 X123.916 Y122.012 E9.72954
G1 X123.552 Y122.666 E9.74448
G1 X123.326 Y123.003 E9.75257
G1 X122.475 Y124.197 E9.78183
G1 X122.009 Y124.782 E9.79676
