;FLAVOR:Marlin
;TIME:6231
;Filament used: 2.60833m
;Layer height: 0.15
;Generated with Cura_SteamEngine 3.3.1
M82 ;absolute extrusion mode
 ;Basic settings: Layer height: 0.15 Walls: 1.6 Fill: 25
 ;metric values
 M107
 G28
 G29
 G90        ;absolute positioning
 G92 E0; reset extruder distance
 G1 Z5 F300 ;move nozzle up 5mm for safe homing
 G1 X0 Y0 Z0 F5000; move nozzle to home
 M300 S600P200
 M300 S800 P200
 M190 S70 ;Uncomment to add your own bed temperature line
 M109 S220 ;Uncomment to add your own temperature line
 M82        ;set extruder to absolute mode
 M107       ;start with the fan off
 G1 Z15.0 F120 ;move the platform down 15mm
 G92 E0                  ;zero the extruded length
 G1 F200 E3              ;extrude 3mm of feed stock
 G92 E0                  ;zero the extruded length again
 G1 F120
 ;Put printing message on LCD screen
 M117 Printing...

G92 E0
G1 F1500 E-3
;LAYER_COUNT:134
;LAYER:0
M107
G0 F3600 X84.623 Y96.349 Z0.12
;TYPE:SKIRT
G1 F1500 E0
G1 F900 X85.222 Y95.834 E0.01576
G1 X85.87 Y95.383 E0.03152
G1 X86.561 Y94.999 E0.0473
G1 X87.286 Y94.687 E0.06305
G1 X88.039 Y94.45 E0.0788
G1 X88.813 Y94.291 E0.09457
G1 X89.598 Y94.21 E0.11032
G1 X90 Y94.2 E0.11834
G1 X120 Y94.2 E0.71702
G1 X120.789 Y94.24 E0.73279
G1 X121.569 Y94.359 E0.74854
G1 X122.334 Y94.557 E0.76431
G1 X123.074 Y94.831 E0.78005
G1 X123.783 Y95.179 E0.79581
G1 X124.454 Y95.597 E0.81159
G1 X125.078 Y96.08 E0.82734
G1 X125.651 Y96.623 E0.84309
G1 X126.166 Y97.222 E0.85886
G1 X126.617 Y97.87 E0.87461
G1 X127.001 Y98.561 E0.89039
G1 X127.313 Y99.286 E0.90614
G1 X127.55 Y100.039 E0.92189
G1 X127.709 Y100.813 E0.93766
G1 X127.79 Y101.598 E0.95341
G1 X127.8 Y102 E0.96143
G1 X127.8 Y148 E1.87941
G1 X127.76 Y148.789 E1.89518
G1 X127.641 Y149.569 E1.91092
G1 X127.443 Y150.334 E1.92669
G1 X127.169 Y151.074 E1.94244
G1 X126.821 Y151.783 E1.9582
G1 X126.403 Y152.454 E1.97398
G1 X125.92 Y153.078 E1.98973
G1 X125.377 Y153.651 E2.00548
G1 X124.778 Y154.166 E2.02124
G1 X124.13 Y154.617 E2.037
G1 X123.439 Y155.001 E2.05278
G1 X122.714 Y155.313 E2.06853
G1 X121.961 Y155.55 E2.08428
G1 X121.187 Y155.709 E2.10005
G1 X120.402 Y155.79 E2.1158
G1 X120 Y155.8 E2.12382
G1 X90 Y155.8 E2.7225
G1 X89.211 Y155.76 E2.73827
G1 X88.431 Y155.641 E2.75402
G1 X87.666 Y155.443 E2.76979
G1 X86.926 Y155.169 E2.78553
G1 X86.217 Y154.821 E2.80129
G1 X85.546 Y154.403 E2.81707
G1 X84.922 Y153.92 E2.83282
G1 X84.349 Y153.377 E2.84857
G1 X83.834 Y152.778 E2.86434
G1 X83.383 Y152.13 E2.88009
G1 X82.999 Y151.439 E2.89587
G1 X82.687 Y150.714 E2.91162
G1 X82.45 Y149.961 E2.92737
G1 X82.291 Y149.187 E2.94314
G1 X82.21 Y148.402 E2.95889
G1 X82.2 Y148 E2.96691
G1 X82.2 Y102 E3.88489
G1 X82.24 Y101.211 E3.90066
G1 X82.359 Y100.431 E3.9164
G1 X82.557 Y99.666 E3.93217
G1 X82.831 Y98.926 E3.94792
G1 X83.179 Y98.217 E3.96368
G1 X83.597 Y97.546 E3.97946
G1 X84.08 Y96.922 E3.99521
G1 X84.623 Y96.349 E4.01096
G0 F3600 X85.016 Y96.53
G1 F900 X85.611 Y96.042 E4.02632
G1 X86.253 Y95.619 E4.04166
G1 X86.936 Y95.264 E4.05702
G1 X87.651 Y94.983 E4.07235
G1 X88.393 Y94.777 E4.08772
G1 X89.151 Y94.649 E4.10306
G1 X90 Y94.6 E4.12003
G1 X120 Y94.6 E4.71871
G1 X120.768 Y94.64 E4.73406
G1 X121.528 Y94.759 E4.74941
G1 X122.271 Y94.957 E4.76476
G1 X122.99 Y95.231 E4.78011
G1 X123.676 Y95.578 E4.79545
G1 X124.323 Y95.994 E4.8108
G1 X124.923 Y96.475 E4.82615
G1 X125.47 Y97.016 E4.8415
G1 X125.958 Y97.611 E4.85686
G1 X126.381 Y98.253 E4.8722
G1 X126.736 Y98.936 E4.88756
G1 X127.017 Y99.651 E4.90289
G1 X127.223 Y100.393 E4.91826
G1 X127.351 Y101.151 E4.9336
G1 X127.4 Y102 E4.95057
G1 X127.4 Y148 E5.86855
G1 X127.36 Y148.768 E5.8839
G1 X127.241 Y149.528 E5.89925
G1 X127.043 Y150.271 E5.9146
G1 X126.769 Y150.99 E5.92995
G1 X126.422 Y151.676 E5.94529
G1 X126.006 Y152.323 E5.96064
G1 X125.525 Y152.923 E5.97599
G1 X124.984 Y153.47 E5.99134
G1 X124.389 Y153.958 E6.0067
G1 X123.747 Y154.381 E6.02204
G1 X123.064 Y154.736 E6.0374
G1 X122.349 Y155.017 E6.05273
G1 X121.607 Y155.223 E6.0681
G1 X120.849 Y155.351 E6.08344
G1 X120 Y155.4 E6.10041
G1 X90 Y155.4 E6.6991
G1 X89.232 Y155.36 E6.71444
G1 X88.472 Y155.241 E6.72979
G1 X87.729 Y155.043 E6.74514
G1 X87.01 Y154.769 E6.76049
G1 X86.324 Y154.422 E6.77584
G1 X85.677 Y154.006 E6.79119
G1 X85.077 Y153.525 E6.80653
G1 X84.53 Y152.984 E6.82188
G1 X84.042 Y152.389 E6.83724
G1 X83.619 Y151.747 E6.85258
G1 X83.264 Y151.064 E6.86795
G1 X82.983 Y150.349 E6.88328
G1 X82.777 Y149.607 E6.89864
G1 X82.649 Y148.849 E6.91398
G1 X82.6 Y148 E6.93096
G1 X82.6 Y102 E7.84894
G1 X82.64 Y101.232 E7.86428
G1 X82.759 Y100.472 E7.87963
G1 X82.957 Y99.729 E7.89498
G1 X83.231 Y99.01 E7.91033
G1 X83.578 Y98.324 E7.92568
G1 X83.994 Y97.677 E7.94103
G1 X84.475 Y97.077 E7.95637
G1 X85.016 Y96.53 E7.97172
G0 F3600 X85.408 Y96.716
G1 F900 X85.998 Y96.257 E7.98664
G1 X86.634 Y95.862 E8.00158
G1 X87.308 Y95.538 E8.01651
G1 X88.013 Y95.288 E8.03143
G1 X88.741 Y95.114 E8.04637
G1 X89.483 Y95.019 E8.0613
G1 X90 Y95 E8.07162
G1 X120 Y95 E8.67031
G1 X120.747 Y95.04 E8.68523
G1 X121.485 Y95.159 E8.70015
G1 X122.207 Y95.357 E8.71509
G1 X122.903 Y95.63 E8.73001
G1 X123.566 Y95.977 E8.74495
G1 X124.189 Y96.392 E8.75988
G1 X124.763 Y96.871 E8.7748
G1 X125.284 Y97.408 E8.78974
G1 X125.743 Y97.998 E8.80465
G1 X126.138 Y98.634 E8.81959
G1 X126.462 Y99.308 E8.83452
G1 X126.712 Y100.013 E8.84944
G1 X126.886 Y100.741 E8.86438
G1 X126.981 Y101.483 E8.87931
G1 X127 Y102 E8.88963
G1 X127 Y148 E9.80761
G1 X126.96 Y148.747 E9.82254
G1 X126.841 Y149.485 E9.83746
G1 X126.643 Y150.207 E9.8524
G1 X126.37 Y150.903 E9.86732
G1 X126.023 Y151.566 E9.88225
G1 X125.608 Y152.189 E9.89719
G1 X125.129 Y152.763 E9.91211
G1 X124.592 Y153.284 E9.92704
G1 X124.002 Y153.743 E9.94196
G1 X123.366 Y154.138 E9.9569
G1 X122.692 Y154.462 E9.97182
G1 X121.987 Y154.712 E9.98675
G1 X121.259 Y154.886 E10.00169
G1 X120.517 Y154.981 E10.01662
G1 X120 Y155 E10.02694
G1 X90 Y155 E10.62562
G1 X89.253 Y154.96 E10.64055
G1 X88.515 Y154.841 E10.65547
G1 X87.793 Y154.643 E10.67041
G1 X87.097 Y154.37 E10.68533
G1 X86.434 Y154.023 E10.70026
G1 X85.811 Y153.608 E10.7152
G1 X85.237 Y153.129 E10.73012
G1 X84.716 Y152.592 E10.74505
G1 X84.257 Y152.002 E10.75997
G1 X83.862 Y151.366 E10.77491
G1 X83.538 Y150.692 E10.78984
G1 X83.288 Y149.987 E10.80476
G1 X83.114 Y149.259 E10.8197
G1 X83.019 Y148.517 E10.83463
G1 X83 Y148 E10.84495
G1 X83 Y102 E11.76293
G1 X83.04 Y101.253 E11.77786
G1 X83.159 Y100.515 E11.79278
G1 X83.357 Y99.793 E11.80772
G1 X83.63 Y99.097 E11.82264
G1 X83.977 Y98.434 E11.83757
G1 X84.392 Y97.811 E11.85251
G1 X84.871 Y97.237 E11.86743
G1 X85.408 Y96.716 E11.88236
G0 F3600 X85.265 Y97.402
G1 F900 X85.799 Y96.909 E11.89686
G1 X86.384 Y96.479 E11.91135
G1 X87.013 Y96.115 E11.92586
G1 X87.678 Y95.822 E11.94036
G1 X88.371 Y95.604 E11.95486
G1 X89.083 Y95.464 E11.96934
G1 X90 Y95.4 E11.98768
G1 X120 Y95.4 E12.58636
G1 X120.725 Y95.44 E12.60085
G1 X121.442 Y95.559 E12.61536
G1 X122.141 Y95.757 E12.62986
G1 X122.814 Y96.03 E12.64435
G1 X123.453 Y96.375 E12.65884
G1 X124.05 Y96.789 E12.67334
G1 X124.598 Y97.265 E12.68782
G1 X125.091 Y97.799 E12.70233
G1 X125.521 Y98.384 E12.71682
G1 X125.885 Y99.013 E12.73132
G1 X126.178 Y99.678 E12.74582
G1 X126.396 Y100.371 E12.76032
G1 X126.536 Y101.083 E12.7748
G1 X126.6 Y102 E12.79314
G1 X126.6 Y148 E13.71112
G1 X126.56 Y148.725 E13.72561
G1 X126.441 Y149.442 E13.74012
G1 X126.243 Y150.141 E13.75462
G1 X125.97 Y150.814 E13.76911
G1 X125.625 Y151.453 E13.7836
G1 X125.211 Y152.05 E13.7981
G1 X124.735 Y152.598 E13.81259
G1 X124.201 Y153.091 E13.82709
G1 X123.616 Y153.521 E13.84158
G1 X122.987 Y153.885 E13.85608
G1 X122.322 Y154.178 E13.87058
G1 X121.629 Y154.396 E13.88508
G1 X120.917 Y154.536 E13.89956
G1 X120 Y154.6 E13.9179
G1 X90 Y154.6 E14.51659
G1 X89.275 Y154.56 E14.53108
G1 X88.558 Y154.441 E14.54558
G1 X87.859 Y154.243 E14.56008
G1 X87.186 Y153.97 E14.57457
G1 X86.547 Y153.625 E14.58907
G1 X85.95 Y153.211 E14.60356
G1 X85.402 Y152.735 E14.61805
G1 X84.909 Y152.201 E14.63255
G1 X84.479 Y151.616 E14.64704
G1 X84.115 Y150.987 E14.66154
G1 X83.822 Y150.322 E14.67605
G1 X83.604 Y149.629 E14.69054
G1 X83.464 Y148.917 E14.70502
G1 X83.4 Y148 E14.72337
G1 X83.4 Y102 E15.64135
G1 X83.44 Y101.275 E15.65584
G1 X83.559 Y100.558 E15.67034
G1 X83.757 Y99.859 E15.68484
G1 X84.03 Y99.186 E15.69933
G1 X84.375 Y98.547 E15.71383
G1 X84.789 Y97.95 E15.72832
G1 X85.265 Y97.402 E15.74281
G0 F3600 X85.659 Y97.573
G1 F900 X86.189 Y97.109 E15.75687
G1 X86.768 Y96.709 E15.77091
G1 X87.389 Y96.377 E15.78496
G1 X88.043 Y96.117 E15.79901
G1 X88.723 Y95.933 E15.81307
G1 X89.419 Y95.827 E15.82712
G1 X90 Y95.8 E15.83872
G1 X120 Y95.8 E16.4374
G1 X120.703 Y95.84 E16.45146
G1 X121.397 Y95.959 E16.46551
G1 X122.072 Y96.157 E16.47955
G1 X122.721 Y96.429 E16.49359
G1 X123.335 Y96.774 E16.50764
G1 X123.906 Y97.185 E16.52168
G1 X124.427 Y97.659 E16.53574
G1 X124.891 Y98.189 E16.5498
G1 X125.291 Y98.768 E16.56384
G1 X125.623 Y99.389 E16.57789
G1 X125.883 Y100.043 E16.59194
G1 X126.067 Y100.723 E16.606
G1 X126.173 Y101.419 E16.62005
G1 X126.2 Y102 E16.63165
G1 X126.2 Y148 E17.54963
G1 X126.16 Y148.703 E17.56368
G1 X126.041 Y149.397 E17.57774
G1 X125.843 Y150.072 E17.59177
G1 X125.571 Y150.721 E17.60582
G1 X125.226 Y151.335 E17.61987
G1 X124.815 Y151.906 E17.63391
G1 X124.341 Y152.427 E17.64797
G1 X123.811 Y152.891 E17.66203
G1 X123.232 Y153.291 E17.67607
G1 X122.611 Y153.623 E17.69012
G1 X121.957 Y153.883 E17.70417
G1 X121.277 Y154.067 E17.71822
G1 X120.581 Y154.173 E17.73227
G1 X120 Y154.2 E17.74388
G1 X90 Y154.2 E18.34256
G1 X89.297 Y154.16 E18.35662
G1 X88.603 Y154.041 E18.37067
G1 X87.928 Y153.843 E18.38471
G1 X87.279 Y153.571 E18.39875
G1 X86.665 Y153.226 E18.4128
G1 X86.094 Y152.815 E18.42684
G1 X85.573 Y152.341 E18.4409
G1 X85.109 Y151.811 E18.45496
G1 X84.709 Y151.232 E18.469
G1 X84.377 Y150.611 E18.48305
G1 X84.117 Y149.957 E18.4971
G1 X83.933 Y149.277 E18.51116
G1 X83.827 Y148.581 E18.52521
G1 X83.8 Y148 E18.53681
G1 X83.8 Y102 E19.45479
G1 X83.84 Y101.297 E19.46884
G1 X83.959 Y100.603 E19.4829
G1 X84.157 Y99.928 E19.49693
G1 X84.429 Y99.279 E19.51098
G1 X84.774 Y98.665 E19.52503
G1 X85.185 Y98.094 E19.53907
G1 X85.659 Y97.573 E19.55313
G0 F3600 X86.053 Y97.751
G1 F900 X86.578 Y97.317 E19.56672
G1 X87.15 Y96.948 E19.5803
G1 X87.762 Y96.649 E19.5939
G1 X88.404 Y96.424 E19.60747
G1 X89.069 Y96.275 E19.62107
G1 X90 Y96.2 E19.63971
G1 X120 Y96.2 E20.23839
G1 X120.68 Y96.24 E20.25199
G1 X121.35 Y96.359 E20.26557
G1 X122.002 Y96.556 E20.27916
G1 X122.626 Y96.828 E20.29274
G1 X123.214 Y97.172 E20.30634
G1 X123.758 Y97.582 E20.31993
G1 X124.249 Y98.053 E20.33351
G1 X124.683 Y98.578 E20.3471
G1 X125.052 Y99.15 E20.36069
G1 X125.351 Y99.762 E20.37428
G1 X125.576 Y100.404 E20.38786
G1 X125.725 Y101.069 E20.40146
G1 X125.8 Y102 E20.4201
G1 X125.8 Y148 E21.33808
G1 X125.76 Y148.68 E21.35167
G1 X125.641 Y149.35 E21.36525
G1 X125.444 Y150.002 E21.37884
G1 X125.172 Y150.626 E21.39243
G1 X124.828 Y151.214 E21.40602
G1 X124.418 Y151.758 E21.41961
G1 X123.947 Y152.249 E21.43319
G1 X123.422 Y152.683 E21.44679
G1 X122.85 Y153.052 E21.46037
G1 X122.238 Y153.351 E21.47396
G1 X121.596 Y153.576 E21.48754
G1 X120.931 Y153.725 E21.50114
G1 X120 Y153.8 E21.51978
G1 X90 Y153.8 E22.11846
G1 X89.32 Y153.76 E22.13205
G1 X88.65 Y153.641 E22.14563
G1 X87.998 Y153.444 E22.15923
G1 X87.374 Y153.172 E22.17281
G1 X86.786 Y152.828 E22.1864
G1 X86.242 Y152.418 E22.2
G1 X85.751 Y151.947 E22.21358
G1 X85.317 Y151.422 E22.22717
G1 X84.948 Y150.85 E22.24075
G1 X84.649 Y150.238 E22.25435
G1 X84.424 Y149.596 E22.26792
G1 X84.275 Y148.931 E22.28152
G1 X84.2 Y148 E22.30016
G1 X84.2 Y102 E23.21814
G1 X84.24 Y101.32 E23.23174
G1 X84.359 Y100.65 E23.24532
G1 X84.556 Y99.998 E23.25891
G1 X84.828 Y99.374 E23.27249
G1 X85.172 Y98.786 E23.28609
G1 X85.582 Y98.242 E23.29968
G1 X86.053 Y97.751 E23.31326
G0 F3600 X86.445 Y97.935
G1 F900 X86.965 Y97.534 E23.32636
G1 X87.529 Y97.198 E23.33946
G1 X88.131 Y96.934 E23.35258
G1 X88.76 Y96.744 E23.36569
G1 X89.407 Y96.633 E23.37879
G1 X90 Y96.6 E23.39065
G1 X120 Y96.6 E23.98933
G1 X120.656 Y96.64 E24.00244
G1 X121.302 Y96.759 E24.01555
G1 X121.929 Y96.956 E24.02867
G1 X122.527 Y97.228 E24.04178
G1 X123.088 Y97.57 E24.05489
G1 X123.603 Y97.978 E24.068
G1 X124.065 Y98.445 E24.08111
G1 X124.466 Y98.965 E24.09422
G1 X124.802 Y99.529 E24.10732
G1 X125.066 Y100.131 E24.12044
G1 X125.256 Y100.76 E24.13355
G1 X125.367 Y101.407 E24.14665
G1 X125.4 Y102 E24.1585
G1 X125.4 Y148 E25.07648
G1 X125.36 Y148.656 E25.0896
G1 X125.241 Y149.302 E25.1027
G1 X125.044 Y149.929 E25.11582
G1 X124.772 Y150.527 E25.12893
G1 X124.43 Y151.088 E25.14204
G1 X124.022 Y151.603 E25.15515
G1 X123.555 Y152.065 E25.16826
G1 X123.035 Y152.466 E25.18137
G1 X122.471 Y152.802 E25.19447
G1 X121.869 Y153.066 E25.20759
G1 X121.24 Y153.256 E25.2207
G1 X120.593 Y153.367 E25.2338
G1 X120 Y153.4 E25.24565
G1 X90 Y153.4 E25.84433
G1 X89.344 Y153.36 E25.85745
G1 X88.698 Y153.241 E25.87056
G1 X88.071 Y153.044 E25.88367
G1 X87.473 Y152.772 E25.89678
G1 X86.912 Y152.43 E25.9099
G1 X86.397 Y152.022 E25.92301
G1 X85.935 Y151.555 E25.93612
G1 X85.534 Y151.035 E25.94922
G1 X85.198 Y150.471 E25.96232
G1 X84.934 Y149.869 E25.97544
G1 X84.744 Y149.24 E25.98855
G1 X84.633 Y148.593 E26.00165
G1 X84.6 Y148 E26.0135
G1 X84.6 Y102 E26.93148
G1 X84.64 Y101.344 E26.9446
G1 X84.759 Y100.698 E26.95771
G1 X84.956 Y100.071 E26.97082
G1 X85.228 Y99.473 E26.98393
G1 X85.57 Y98.912 E26.99705
G1 X85.978 Y98.397 E27.01016
G1 X86.445 Y97.935 E27.02327
G0 F3600 X86.373 Y98.559
G1 F900 X86.836 Y98.129 E27.03588
G1 X87.35 Y97.76 E27.0485
G1 X87.906 Y97.46 E27.06111
G1 X88.495 Y97.232 E27.07372
G1 X89.109 Y97.08 E27.08634
G1 X90 Y97 E27.10419
G1 X120 Y97 E27.70287
G1 X120.631 Y97.04 E27.71549
G1 X121.252 Y97.159 E27.72811
G1 X121.852 Y97.356 E27.74071
G1 X122.424 Y97.627 E27.75334
G1 X122.956 Y97.967 E27.76594
G1 X123.441 Y98.373 E27.77856
G1 X123.871 Y98.836 E27.79117
G1 X124.24 Y99.35 E27.8038
G1 X124.54 Y99.906 E27.81641
G1 X124.768 Y100.495 E27.82901
G1 X124.92 Y101.109 E27.84164
G1 X125 Y102 E27.85949
G1 X125 Y148 E28.77747
G1 X124.96 Y148.631 E28.79009
G1 X124.841 Y149.252 E28.8027
G1 X124.644 Y149.852 E28.81531
G1 X124.373 Y150.424 E28.82794
G1 X124.033 Y150.956 E28.84054
G1 X123.627 Y151.441 E28.85316
G1 X123.164 Y151.871 E28.86577
G1 X122.65 Y152.24 E28.8784
G1 X122.094 Y152.54 E28.891
G1 X121.505 Y152.768 E28.90361
G1 X120.891 Y152.92 E28.91623
G1 X120 Y153 E28.93408
G1 X90 Y153 E29.53277
G1 X89.369 Y152.96 E29.54538
G1 X88.748 Y152.841 E29.558
G1 X88.148 Y152.644 E29.5706
G1 X87.576 Y152.373 E29.58324
G1 X87.044 Y152.033 E29.59584
G1 X86.559 Y151.627 E29.60846
G1 X86.129 Y151.164 E29.62107
G1 X85.76 Y150.65 E29.63369
G1 X85.46 Y150.094 E29.6463
G1 X85.232 Y149.505 E29.65891
G1 X85.08 Y148.891 E29.67153
G1 X85 Y148 E29.68938
G1 X85 Y102 E30.60736
G1 X85.04 Y101.369 E30.61998
G1 X85.159 Y100.748 E30.6326
G1 X85.356 Y100.148 E30.6452
G1 X85.627 Y99.576 E30.65783
G1 X85.967 Y99.044 E30.67043
G1 X86.373 Y98.559 E30.68305
G0 F3600 X86.767 Y98.728
G1 F900 X87.225 Y98.331 E30.69515
G1 X87.732 Y97.998 E30.70725
G1 X88.278 Y97.734 E30.71936
G1 X88.854 Y97.545 E30.73145
G1 X89.45 Y97.433 E30.74356
G1 X90 Y97.4 E30.75455
G1 X120 Y97.4 E31.35323
G1 X120.605 Y97.44 E31.36533
G1 X121.199 Y97.559 E31.37742
G1 X121.773 Y97.755 E31.38953
G1 X122.316 Y98.026 E31.40164
G1 X122.819 Y98.365 E31.41374
G1 X123.272 Y98.767 E31.42583
G1 X123.669 Y99.225 E31.43792
G1 X124.002 Y99.732 E31.45003
G1 X124.266 Y100.278 E31.46213
G1 X124.455 Y100.854 E31.47423
G1 X124.567 Y101.45 E31.48633
G1 X124.6 Y102 E31.49733
G1 X124.6 Y148 E32.41531
G1 X124.56 Y148.605 E32.42741
G1 X124.441 Y149.199 E32.4395
G1 X124.245 Y149.773 E32.4516
G1 X123.974 Y150.316 E32.46371
G1 X123.635 Y150.819 E32.47582
G1 X123.233 Y151.272 E32.4879
G1 X122.775 Y151.669 E32.5
G1 X122.268 Y152.002 E32.5121
G1 X121.722 Y152.266 E32.52421
G1 X121.146 Y152.455 E32.5363
G1 X120.55 Y152.567 E32.54841
G1 X120 Y152.6 E32.5594
G1 X90 Y152.6 E33.15808
G1 X89.395 Y152.56 E33.17018
G1 X88.801 Y152.441 E33.18227
G1 X88.227 Y152.245 E33.19438
G1 X87.684 Y151.974 E33.20649
