;FLAVOR:Marlin
;TIME:14527
;Filament used: 14.5802m
;Layer height: 0.2
;Generated with Cura_SteamEngine 3.3.1
M82 ;absolute extrusion mode
 ;Basic settings: Layer height: 0.2 Walls: 1.6 Fill: 15
 ;metric values
 M107
 G28
 G29
 G90        ;absolute positioning
 G92 E0; reset extruder distance
 G1 Z5 F300 ;move nozzle up 5mm for safe homing
 G1 X0 Y0 Z0 F5000; move nozzle to home
 M300 S600P200
 M300 S800 P200
 M190 S60 ;Uncomment to add your own bed temperature line
 M109 S200 ;Uncomment to add your own temperature line
 M82        ;set extruder to absolute mode
 M107       ;start with the fan off
 G1 Z15.0 F120 ;move the platform down 15mm
 G92 E0                  ;zero the extruded length
 G1 F200 E3              ;extrude 3mm of feed stock
 G92 E0                  ;zero the extruded length again
 G1 F120
 ;Put printing message on LCD screen
 M117 Printing...

G92 E0
G1 F1500 E-3
;LAYER_COUNT:88
;LAYER:0
M107
G0 F3600 X99.423 Y11.675 Z0.2
;TYPE:SKIRT
G1 F1500 E0
G1 F1800 X99.542 Y10.895 E0.02624
G1 X99.74 Y10.13 E0.05253
G1 X100.014 Y9.39 E0.07877
G1 X100.362 Y8.681 E0.10504
G1 X100.78 Y8.01 E0.13133
G1 X101.263 Y7.386 E0.15758
G1 X101.806 Y6.813 E0.18383
G1 X102.405 Y6.298 E0.21011
G1 X103.053 Y5.847 E0.23637
G1 X103.744 Y5.463 E0.26266
G1 X104.469 Y5.151 E0.28891
G1 X105.222 Y4.914 E0.31517
G1 X105.996 Y4.755 E0.34145
G1 X106.781 Y4.674 E0.3677
G1 X107.183 Y4.664 E0.38107
G1 X159.683 Y4.664 E2.12723
G1 X160.472 Y4.704 E2.15351
G1 X161.252 Y4.823 E2.17975
G1 X162.017 Y5.021 E2.20603
G1 X162.757 Y5.295 E2.23228
G1 X163.466 Y5.643 E2.25855
G1 X164.137 Y6.061 E2.28484
G1 X164.761 Y6.544 E2.31108
G1 X165.334 Y7.087 E2.33734
G1 X165.849 Y7.686 E2.36361
G1 X166.3 Y8.334 E2.38987
G1 X166.684 Y9.025 E2.41617
G1 X166.996 Y9.75 E2.44242
G1 X167.233 Y10.503 E2.46867
G1 X167.392 Y11.277 E2.49495
G1 X167.473 Y12.062 E2.5212
G1 X167.483 Y12.464 E2.53458
G1 X167.483 Y97.464 E5.36169
G1 X167.443 Y98.253 E5.38796
G1 X167.324 Y99.033 E5.41421
G1 X167.126 Y99.798 E5.44049
G1 X166.852 Y100.538 E5.46674
G1 X166.504 Y101.247 E5.493
G1 X166.086 Y101.918 E5.5193
G1 X165.603 Y102.542 E5.54554
G1 X165.06 Y103.115 E5.5718
G1 X164.461 Y103.63 E5.59807
G1 X163.813 Y104.081 E5.62433
G1 X163.122 Y104.465 E5.65063
G1 X162.397 Y104.777 E5.67688
G1 X161.644 Y105.014 E5.70313
G1 X160.87 Y105.173 E5.72941
G1 X160.085 Y105.254 E5.75566
G1 X159.683 Y105.264 E5.76904
G1 X107.183 Y105.264 E7.51519
G1 X106.394 Y105.224 E7.54147
G1 X105.614 Y105.105 E7.56771
G1 X104.849 Y104.907 E7.594
G1 X104.109 Y104.633 E7.62024
G1 X103.4 Y104.285 E7.64651
G1 X102.729 Y103.867 E7.6728
G1 X102.105 Y103.384 E7.69905
G1 X101.532 Y102.841 E7.7253
G1 X101.017 Y102.242 E7.75158
G1 X100.566 Y101.594 E7.77784
G1 X100.182 Y100.903 E7.80413
G1 X99.87 Y100.178 E7.83038
G1 X99.633 Y99.425 E7.85664
G1 X99.474 Y98.651 E7.88292
G1 X99.393 Y97.866 E7.90917
G1 X99.383 Y97.464 E7.92254
G1 X99.383 Y12.464 E10.74965
G1 X99.423 Y11.675 E10.77593
G0 F3600 X99.823 Y11.696
G1 F1800 X99.942 Y10.936 E10.80151
G1 X100.14 Y10.193 E10.82709
G1 X100.414 Y9.474 E10.85268
G1 X100.761 Y8.788 E10.87825
G1 X101.177 Y8.141 E10.90383
G1 X101.658 Y7.541 E10.92941
G1 X102.199 Y6.994 E10.955
G1 X102.794 Y6.506 E10.98059
G1 X103.436 Y6.083 E11.00617
G1 X104.119 Y5.728 E11.03177
G1 X104.834 Y5.447 E11.05732
G1 X105.576 Y5.241 E11.08293
G1 X106.334 Y5.113 E11.1085
G1 X107.183 Y5.064 E11.13678
G1 X159.683 Y5.064 E12.88294
G1 X160.451 Y5.104 E12.90852
G1 X161.211 Y5.223 E12.93411
G1 X161.954 Y5.421 E12.95968
G1 X162.673 Y5.695 E12.98527
G1 X163.359 Y6.042 E13.01084
G1 X164.006 Y6.458 E13.03643
G1 X164.606 Y6.939 E13.062
G1 X165.153 Y7.48 E13.08759
G1 X165.641 Y8.075 E13.11319
G1 X166.064 Y8.717 E13.13876
G1 X166.419 Y9.4 E13.16436
G1 X166.7 Y10.115 E13.18991
G1 X166.906 Y10.857 E13.21552
G1 X167.034 Y11.615 E13.24109
G1 X167.083 Y12.464 E13.26938
G1 X167.083 Y97.464 E16.09649
G1 X167.043 Y98.232 E16.12207
G1 X166.924 Y98.992 E16.14765
G1 X166.726 Y99.735 E16.17323
G1 X166.452 Y100.454 E16.19882
G1 X166.105 Y101.14 E16.22439
G1 X165.689 Y101.787 E16.24997
G1 X165.208 Y102.387 E16.27555
G1 X164.667 Y102.934 E16.30114
G1 X164.072 Y103.422 E16.32673
G1 X163.43 Y103.845 E16.3523
G1 X162.747 Y104.2 E16.3779
G1 X162.032 Y104.481 E16.40346
G1 X161.29 Y104.687 E16.42907
G1 X160.532 Y104.815 E16.45464
G1 X159.683 Y104.864 E16.48292
G1 X107.183 Y104.864 E18.22908
G1 X106.415 Y104.824 E18.25466
G1 X105.655 Y104.705 E18.28024
G1 X104.912 Y104.507 E18.30582
G1 X104.193 Y104.233 E18.33141
G1 X103.507 Y103.886 E18.35698
G1 X102.86 Y103.47 E18.38256
G1 X102.26 Y102.989 E18.40814
G1 X101.713 Y102.448 E18.43373
G1 X101.225 Y101.853 E18.45932
G1 X100.802 Y101.211 E18.48489
G1 X100.447 Y100.528 E18.51049
G1 X100.166 Y99.813 E18.53605
G1 X99.96 Y99.071 E18.56166
G1 X99.832 Y98.313 E18.58723
G1 X99.783 Y97.464 E18.61551
G1 X99.783 Y12.464 E21.44262
G1 X99.823 Y11.696 E21.4682
G0 F3600 X100.223 Y11.717
G1 F1800 X100.342 Y10.979 E21.49306
G1 X100.54 Y10.257 E21.51796
G1 X100.813 Y9.561 E21.54283
G1 X101.16 Y8.898 E21.56772
G1 X101.575 Y8.275 E21.59262
G1 X102.054 Y7.701 E21.61748
G1 X102.591 Y7.18 E21.64237
G1 X103.181 Y6.721 E21.66723
G1 X103.817 Y6.326 E21.69213
G1 X104.491 Y6.002 E21.717
G1 X105.196 Y5.752 E21.74188
G1 X105.924 Y5.578 E21.76678
G1 X106.666 Y5.483 E21.79166
G1 X107.183 Y5.464 E21.80887
G1 X159.683 Y5.464 E23.55502
G1 X160.43 Y5.504 E23.5799
G1 X161.168 Y5.623 E23.60477
G1 X161.89 Y5.821 E23.62967
G1 X162.586 Y6.094 E23.65453
G1 X163.249 Y6.441 E23.67942
G1 X163.872 Y6.856 E23.70432
G1 X164.446 Y7.335 E23.72919
G1 X164.967 Y7.872 E23.75407
G1 X165.426 Y8.462 E23.77893
G1 X165.821 Y9.098 E23.80384
G1 X166.145 Y9.772 E23.82871
G1 X166.395 Y10.477 E23.85359
G1 X166.569 Y11.205 E23.87848
G1 X166.664 Y11.947 E23.90336
G1 X166.683 Y12.464 E23.92057
G1 X166.683 Y97.464 E26.74768
G1 X166.643 Y98.211 E26.77256
G1 X166.524 Y98.949 E26.79743
G1 X166.326 Y99.671 E26.82233
G1 X166.053 Y100.367 E26.84719
G1 X165.706 Y101.03 E26.87208
G1 X165.291 Y101.653 E26.89698
G1 X164.812 Y102.227 E26.92184
G1 X164.275 Y102.748 E26.94673
G1 X163.685 Y103.207 E26.97159
G1 X163.049 Y103.602 E26.99649
G1 X162.375 Y103.926 E27.02137
G1 X161.67 Y104.176 E27.04625
G1 X160.942 Y104.35 E27.07114
G1 X160.2 Y104.445 E27.09602
G1 X159.683 Y104.464 E27.11323
G1 X107.183 Y104.464 E28.85939
G1 X106.436 Y104.424 E28.88427
G1 X105.698 Y104.305 E28.90913
G1 X104.976 Y104.107 E28.93403
G1 X104.28 Y103.834 E28.9589
G1 X103.617 Y103.487 E28.98379
G1 X102.994 Y103.072 E29.00868
G1 X102.42 Y102.593 E29.03355
G1 X101.899 Y102.056 E29.05843
G1 X101.44 Y101.466 E29.0833
G1 X101.045 Y100.83 E29.1082
G1 X100.721 Y100.156 E29.13307
G1 X100.471 Y99.451 E29.15795
G1 X100.297 Y98.723 E29.18285
G1 X100.202 Y97.981 E29.20773
G1 X100.183 Y97.464 E29.22493
G1 X100.183 Y12.464 E32.05204
G1 X100.223 Y11.717 E32.07693
G0 F3600 X100.623 Y11.739
G1 F1800 X100.742 Y11.022 E32.1011
G1 X100.94 Y10.323 E32.12526
G1 X101.213 Y9.65 E32.14942
G1 X101.558 Y9.011 E32.17357
G1 X101.972 Y8.414 E32.19773
G1 X102.448 Y7.866 E32.22188
G1 X102.982 Y7.373 E32.24605
G1 X103.567 Y6.943 E32.2702
G1 X104.196 Y6.579 E32.29437
G1 X104.861 Y6.286 E32.31854
G1 X105.554 Y6.068 E32.3427
G1 X106.266 Y5.928 E32.36684
G1 X107.183 Y5.864 E32.39741
G1 X159.683 Y5.864 E34.14357
G1 X160.408 Y5.904 E34.16772
G1 X161.125 Y6.023 E34.19189
G1 X161.824 Y6.221 E34.21605
G1 X162.497 Y6.494 E34.24021
G1 X163.136 Y6.839 E34.26436
G1 X163.733 Y7.253 E34.28853
G1 X164.281 Y7.729 E34.31267
G1 X164.774 Y8.263 E34.33684
G1 X165.204 Y8.848 E34.36099
G1 X165.568 Y9.477 E34.38516
G1 X165.861 Y10.142 E34.40933
G1 X166.079 Y10.835 E34.43349
G1 X166.219 Y11.547 E34.45763
G1 X166.283 Y12.464 E34.4882
G1 X166.283 Y97.464 E37.31531
G1 X166.243 Y98.189 E37.33946
G1 X166.124 Y98.906 E37.36364
G1 X165.926 Y99.605 E37.3878
G1 X165.653 Y100.278 E37.41196
G1 X165.308 Y100.917 E37.43611
G1 X164.894 Y101.514 E37.46027
G1 X164.418 Y102.062 E37.48442
G1 X163.884 Y102.555 E37.50859
G1 X163.299 Y102.985 E37.53274
G1 X162.67 Y103.349 E37.55691
G1 X162.005 Y103.642 E37.58108
G1 X161.312 Y103.86 E37.60524
G1 X160.6 Y104 E37.62937
G1 X159.683 Y104.064 E37.65995
G1 X107.183 Y104.064 E39.40611
G1 X106.458 Y104.024 E39.43026
G1 X105.741 Y103.905 E39.45443
G1 X105.042 Y103.707 E39.47859
G1 X104.369 Y103.434 E39.50275
G1 X103.73 Y103.089 E39.5269
G1 X103.133 Y102.675 E39.55106
G1 X102.585 Y102.199 E39.57521
G1 X102.092 Y101.665 E39.59938
G1 X101.662 Y101.08 E39.62353
G1 X101.298 Y100.451 E39.6477
G1 X101.005 Y99.786 E39.67187
G1 X100.787 Y99.093 E39.69603
G1 X100.647 Y98.381 E39.72017
G1 X100.583 Y97.464 E39.75074
G1 X100.583 Y12.464 E42.57785
G1 X100.623 Y11.739 E42.602
G0 F3600 X101.023 Y11.761
G1 F1800 X101.142 Y11.067 E42.62542
G1 X101.34 Y10.392 E42.64882
G1 X101.612 Y9.743 E42.67222
G1 X101.957 Y9.129 E42.69565
G1 X102.368 Y8.558 E42.71905
G1 X102.842 Y8.037 E42.74247
G1 X103.372 Y7.573 E42.7659
G1 X103.951 Y7.173 E42.78931
G1 X104.572 Y6.841 E42.81273
G1 X105.226 Y6.581 E42.83614
G1 X105.906 Y6.397 E42.85957
G1 X106.602 Y6.291 E42.88298
G1 X107.183 Y6.264 E42.90233
G1 X159.683 Y6.264 E44.64849
G1 X160.386 Y6.304 E44.67191
G1 X161.08 Y6.423 E44.69533
G1 X161.755 Y6.621 E44.71872
G1 X162.404 Y6.893 E44.74213
G1 X163.018 Y7.238 E44.76555
G1 X163.589 Y7.649 E44.78895
G1 X164.11 Y8.123 E44.81238
G1 X164.574 Y8.653 E44.83581
G1 X164.974 Y9.232 E44.85921
G1 X165.306 Y9.853 E44.88263
G1 X165.566 Y10.507 E44.90604
G1 X165.75 Y11.187 E44.92947
G1 X165.856 Y11.883 E44.95289
G1 X165.883 Y12.464 E44.97223
G1 X165.883 Y97.464 E47.79935
G1 X165.843 Y98.167 E47.82277
G1 X165.724 Y98.861 E47.84618
G1 X165.526 Y99.536 E47.86958
G1 X165.254 Y100.185 E47.89299
G1 X164.909 Y100.799 E47.91641
G1 X164.498 Y101.37 E47.93981
G1 X164.024 Y101.891 E47.96324
G1 X163.494 Y102.355 E47.98667
G1 X162.915 Y102.755 E48.01007
G1 X162.294 Y103.087 E48.03349
G1 X161.64 Y103.347 E48.0569
G1 X160.96 Y103.531 E48.08033
G1 X160.264 Y103.637 E48.10375
G1 X159.683 Y103.664 E48.12309
G1 X107.183 Y103.664 E49.86925
G1 X106.48 Y103.624 E49.89267
G1 X105.786 Y103.505 E49.91609
G1 X105.111 Y103.307 E49.93949
G1 X104.462 Y103.035 E49.96289
G1 X103.848 Y102.69 E49.98632
G1 X103.277 Y102.279 E50.00971
G1 X102.756 Y101.805 E50.03314
G1 X102.292 Y101.275 E50.05657
G1 X101.892 Y100.696 E50.07998
G1 X101.56 Y100.075 E50.1034
G1 X101.3 Y99.421 E50.12681
G1 X101.116 Y98.741 E50.15024
G1 X101.01 Y98.045 E50.17365
G1 X100.983 Y97.464 E50.193
G1 X100.983 Y12.464 E53.02011
G1 X101.023 Y11.761 E53.04353
G0 F3600 X101.423 Y11.784
G1 F1800 X101.542 Y11.114 E53.06616
G1 X101.739 Y10.462 E53.08882
G1 X102.011 Y9.838 E53.11146
G1 X102.355 Y9.25 E53.13411
G1 X102.765 Y8.706 E53.15677
G1 X103.236 Y8.215 E53.1794
G1 X103.761 Y7.781 E53.20206
G1 X104.333 Y7.412 E53.2247
G1 X104.945 Y7.113 E53.24735
G1 X105.587 Y6.888 E53.26998
G1 X106.252 Y6.739 E53.29264
G1 X107.183 Y6.664 E53.32371
G1 X159.683 Y6.664 E55.06987
G1 X160.363 Y6.704 E55.09252
G1 X161.033 Y6.823 E55.11515
G1 X161.685 Y7.02 E55.13781
G1 X162.309 Y7.292 E55.16045
G1 X162.897 Y7.636 E55.18311
G1 X163.441 Y8.046 E55.20576
G1 X163.932 Y8.517 E55.22839
G1 X164.366 Y9.042 E55.25105
G1 X164.735 Y9.614 E55.27369
G1 X165.034 Y10.226 E55.29634
G1 X165.259 Y10.868 E55.31897
G1 X165.408 Y11.533 E55.34164
G1 X165.483 Y12.464 E55.3727
G1 X165.483 Y97.464 E58.19981
G1 X165.443 Y98.144 E58.22247
G1 X165.324 Y98.814 E58.2451
G1 X165.127 Y99.466 E58.26776
G1 X164.855 Y100.09 E58.2904
G1 X164.511 Y100.678 E58.31305
G1 X164.101 Y101.222 E58.33571
G1 X163.63 Y101.713 E58.35834
G1 X163.105 Y102.147 E58.381
G1 X162.533 Y102.516 E58.40364
G1 X161.921 Y102.815 E58.42629
G1 X161.279 Y103.04 E58.44892
G1 X160.614 Y103.189 E58.47158
G1 X159.683 Y103.264 E58.50265
G1 X107.183 Y103.264 E60.24881
G1 X106.503 Y103.224 E60.27146
G1 X105.833 Y103.105 E60.2941
G1 X105.181 Y102.908 E60.31675
G1 X104.557 Y102.636 E60.33939
G1 X103.969 Y102.292 E60.36205
G1 X103.425 Y101.882 E60.3847
G1 X102.934 Y101.411 E60.40733
G1 X102.5 Y100.886 E60.42999
G1 X102.131 Y100.314 E60.45263
G1 X101.832 Y99.702 E60.47528
G1 X101.607 Y99.06 E60.49791
G1 X101.458 Y98.395 E60.52058
G1 X101.383 Y97.464 E60.55164
G1 X101.383 Y12.464 E63.37875
G1 X101.423 Y11.784 E63.40141
G0 F3600 X101.823 Y11.808
G1 F1800 X101.942 Y11.162 E63.42326
G1 X102.139 Y10.535 E63.44512
G1 X102.411 Y9.937 E63.46697
G1 X102.753 Y9.376 E63.48882
G1 X103.161 Y8.861 E63.51067
G1 X103.628 Y8.399 E63.53252
G1 X104.148 Y7.998 E63.55436
G1 X104.712 Y7.662 E63.5762
G1 X105.314 Y7.398 E63.59806
G1 X105.943 Y7.208 E63.61992
G1 X106.59 Y7.097 E63.64175
G1 X107.183 Y7.064 E63.6615
G1 X159.683 Y7.064 E65.40766
G1 X160.339 Y7.104 E65.42952
G1 X160.985 Y7.223 E65.45137
G1 X161.612 Y7.42 E65.47323
G1 X162.21 Y7.692 E65.49508
G1 X162.771 Y8.034 E65.51693
G1 X163.286 Y8.442 E65.53878
G1 X163.748 Y8.909 E65.56063
G1 X164.149 Y9.429 E65.58247
G1 X164.485 Y9.993 E65.60431
G1 X164.749 Y10.595 E65.62617
G1 X164.939 Y11.224 E65.64802
G1 X165.05 Y11.871 E65.66986
G1 X165.083 Y12.464 E65.68961
G1 X165.083 Y97.464 E68.51672
G1 X165.043 Y98.12 E68.53858
G1 X164.924 Y98.766 E68.56043
G1 X164.727 Y99.393 E68.58229
G1 X164.455 Y99.991 E68.60414
G1 X164.113 Y100.552 E68.62599
G1 X163.705 Y101.067 E68.64785
G1 X163.238 Y101.529 E68.66969
G1 X162.718 Y101.93 E68.69153
G1 X162.154 Y102.266 E68.71337
G1 X161.552 Y102.53 E68.73523
G1 X160.923 Y102.72 E68.75709
G1 X160.276 Y102.831 E68.77892
G1 X159.683 Y102.864 E68.79868
G1 X107.183 Y102.864 E70.54483
G1 X106.527 Y102.824 E70.56669
G1 X105.881 Y102.705 E70.58854
G1 X105.254 Y102.508 E70.6104
G1 X104.656 Y102.236 E70.63225
G1 X104.095 Y101.894 E70.6541
G1 X103.58 Y101.486 E70.67595
G1 X103.118 Y101.019 E70.6978
G1 X102.717 Y100.499 E70.71964
G1 X102.381 Y99.935 E70.74148
G1 X102.117 Y99.333 E70.76334
G1 X101.927 Y98.704 E70.7852
G1 X101.816 Y98.057 E70.80703
G1 X101.783 Y97.464 E70.82678
G1 X101.783 Y12.464 E73.6539
G1 X101.823 Y11.808 E73.67575
G0 F3600 X102.223 Y11.833
G1 F1800 X102.342 Y11.212 E73.69679
G1 X102.539 Y10.612 E73.71779
G1 X102.81 Y10.04 E73.73884
G1 X103.15 Y9.508 E73.75984
G1 X103.556 Y9.023 E73.78088
G1 X104.019 Y8.593 E73.80189
G1 X104.533 Y8.224 E73.82294
G1 X105.089 Y7.924 E73.84395
G1 X105.678 Y7.696 E73.86496
G1 X106.292 Y7.544 E73.886
G1 X107.183 Y7.464 E73.91575
G1 X159.683 Y7.464 E75.66191
G1 X160.314 Y7.504 E75.68294
G1 X160.935 Y7.623 E75.70397
G1 X161.535 Y7.82 E75.72497
G1 X162.107 Y8.091 E75.74602
G1 X162.639 Y8.431 E75.76702
G1 X163.124 Y8.837 E75.78806
G1 X163.554 Y9.3 E75.80908
G1 X163.923 Y9.814 E75.83012
G1 X164.223 Y10.37 E75.85113
G1 X164.451 Y10.959 E75.87214
G1 X164.603 Y11.573 E75.89318
G1 X164.683 Y12.464 E75.92293
G1 X164.683 Y97.464 E78.75004
G1 X164.643 Y98.095 E78.77107
G1 X164.524 Y98.716 E78.7921
G1 X164.327 Y99.316 E78.81311
G1 X164.056 Y99.888 E78.83416
G1 X163.716 Y100.42 E78.85516
G1 X163.31 Y100.905 E78.8762
G1 X162.847 Y101.335 E78.89721
G1 X162.333 Y101.704 E78.91826
G1 X161.777 Y102.004 E78.93927
G1 X161.188 Y102.232 E78.96028
G1 X160.574 Y102.384 E78.98132
G1 X159.683 Y102.464 E79.01107
G1 X107.183 Y102.464 E80.75723
G1 X106.552 Y102.424 E80.77826
G1 X105.931 Y102.305 E80.79929
G1 X105.331 Y102.108 E80.82029
G1 X104.759 Y101.837 E80.84134
G1 X104.227 Y101.497 E80.86234
G1 X103.742 Y101.091 E80.88338
G1 X103.312 Y100.628 E80.9044
G1 X102.943 Y100.114 E80.92544
G1 X102.643 Y99.558 E80.94645
G1 X102.415 Y98.969 E80.96746
G1 X102.263 Y98.355 E80.9885
G1 X102.183 Y97.464 E81.01825
G1 X102.183 Y12.464 E83.84536
G1 X102.223 Y11.833 E83.86639
G0 F3600 X102.623 Y11.859
G1 F1800 X102.742 Y11.265 E83.88654
G1 X102.938 Y10.691 E83.90672
G1 X103.209 Y10.148 E83.9269
G1 X103.548 Y9.645 E83.94708
G1 X103.95 Y9.192 E83.96722
G1 X104.408 Y8.795 E83.98738
G1 X104.915 Y8.462 E84.00755
G1 X105.461 Y8.198 E84.02773
G1 X106.037 Y8.009 E84.04789
G1 X106.633 Y7.897 E84.06806
G1 X107.183 Y7.864 E84.08638
G1 X159.683 Y7.864 E85.83254
G1 X160.288 Y7.904 E85.85271
G1 X160.882 Y8.023 E85.87286
G1 X161.456 Y8.219 E85.89303
G1 X161.999 Y8.49 E85.91321
G1 X162.502 Y8.829 E85.93339
G1 X162.955 Y9.231 E85.95353
G1 X163.352 Y9.689 E85.97369
G1 X163.685 Y10.196 E85.99387
